/* XPM */
static char *fb65b074700f49b5e8f0cb7f51f065c25EzYZMhghqPfj06N[] = {
/* columns rows colors chars-per-pixel */
"200 200 30 1 ",
"  c None",
". c #F6CA5F",
"X c #F7CD67",
"o c #F5D366",
"O c #F9D16E",
"+ c #FACB72",
"@ c #EFD97B",
"# c #F3D172",
"$ c #F7D771",
"% c #F3D974",
"& c #F4D47A",
"* c #F7D17D",
"= c #F0D67F",
"- c #F9D478",
"; c #F6D87D",
": c #EFDA81",
"> c #EDDA89",
", c #F2D687",
"< c #F3DA87",
"1 c #F4DF86",
"2 c #F7D489",
"3 c #F0DC8F",
"4 c #EED994",
"5 c #EFDA9C",
"6 c #F0D790",
"7 c #F5DB97",
"8 c #EFE095",
"9 c #EFE09E",
"0 c #EADAA4",
"q c #F4DAAB",
/* pixels */
"             %;-;;;                                                             $-O         >>>                                3;X              :>>#                               -;;     OX>>><<<>:>44",
"               $$$--                                                              -;        #8><                                <8              :,3,                               O;2*       :::<,>:::>",
"                 %;-*                                                              $;;       ::<<                                 =%             ;<<;                               ;;2;          ::::::",
"                  ;;;:                                                              $;;       ::>3>                                               @;:                                ;,;=           Oo;:",
"                  --;;22                                                             ;;       ::<,,,                                1             @@;@                               ::;==             ;",
"                    %;****                                                            $$       @:,,=#                                8             ;:@                                 ;;;**            ",
"                     -%*,%&                                                            %;      %;<<<>.                                             ;::=                                 ;;;,;;;;;&      ",
"                      -*6:-2;,,>                                                        %       ;<:::,                                              @:=@                                   *;;2;;;=,    ",
",,                     *6:=,,=,>=                                                       %:      <6:>::&                                             ;:==,                                   --;;;;;,==7 ",
",=:=                    ;@   ;,:::=,                                                     ;      #6<<::,<                                            ;::===                                      -*-&;&=&",
":::=,=                    2<   @::,,<<>4                                                         <:@:6>>:                                            ;:::===                                      ;;*&%;",
":::::=;                    .@=    ,4:,6,::&*                                                      O::03><<                                            @=>:,,                                         O@;",
":::===62                     ;&     :>6,::==<>                                                     1;%3333>>                                          %@:,>,>>                                        @;",
":::===,=-*                    -O;<,     ;%:=<<:,=                                                   34   :><:<=                                         :6o$<>66                                        ",
"::::=:::,2                       &;&        %<<=,&                                                   533.  <<<                                           55  646,,                                      ",
"&,::::::=:==                       O&=       :<::3==                                                  <::       <2  ;=::                                 66=  ,=<,2,;<%&                                ",
" :::::::=:,=                        &&**       ::56,,#                                                  <<,,,       -   ;3333<                            *16>  <<,<<>:,2*5 #o#&22                      ",
"   @:=:,:=::;                       #%*&**      %,66,,=;                                                  ,,;&;;;---O       ;:<,                            4455      ,,;=,===,6#;====@                 ",
"    =::=::::::                        -;===&       :<><:                                                     $%%---;;;        ;;,&                           377,2 ;;=,:;;==;=<;;;;;==;;:               ",
"    =,<:::::::&                         %&&=22       >><>>                                                         $-*2        ;6,,                             <36<<:,*=::,:#      <3 X11              ",
"      ==:::=:<<                         =;@=&*&      >>>>:66                                                        -;***       ,,6>6                           :<<<<,>,,:=,2&22      ;<<<=>            ",
"        :::,,,<=                         O==;%*&      =:>>4,@::===                                                   $,&;       X:<<:=                                  =:@@@=22;&;&      =:==          ",
"           :%;<=                          -;;%,;$-      %X6<::<:::3<333733339<,:  &$:                                 -;,2        ,,::,@=                                     ---;%&;-    ;;;,#&        ",
"             ;;;;                           %<=;;&          <>6<<<><<<3366336,>>,,=:<#==                              .#,,-       =:::>:=                                         -;;<,     ;=>,,       ",
"              :<1                           &<;;;&2           6>>>>333333333>>,:=*2,,4,=:&                              :,,         :::>,::                                         &;2O     <>4<=      ",
"               ;;                               ;--;;*                       &,=,,22<6==:==*                             ;;*-       X=::::,<>>>>>>>6                                 ;-$&     ;;<<&     ",
"                $%                              X$$;****                            ;<:::::;&                            ;%&O         &%<,6<<<<<<:<:<;&                               $;;      %:,6O    ",
"                 :                                $$-&*&;;                            ,::::::,                            %-,;          ::><<<<<<,<<<<:<<>                             ;;2      %:6,    ",
"                 ::                                 o$;;**&*&&&%%%%&&&,*               ;:::::;4                           %;;;            ;<<<<<::<<<:>:>>>                             -;       @:>:   ",
"                  ;=                                    $$%%%%&&&&**&&=&#-----          @,;;,,,==                          $;;--                      :<>366                             .--     .@<;=  ",
"                  @:,X                                          &&**;&&&-&----#&%;        ;;::=,,:                         $;%;22                        -:366                             ;::    ;;==  ",
"                  X;>>                                                      $$%;;;&;        @:<=:,,,                        ;;%;;&**                       ;45>                             $&     %@@:&",
"                   ;<:<=                                                        %;;&**      .::<::,=                          ;;=,&*2&                       43                               9     =::,",
"                    ;:::==#                                                      $------      %:<<:==                           $-&--&--$%$2                  :<                               o    #>,:",
"                    ;:::>>>,>                                                      ;$&*;       $1<::=,                            %%;;;&;&*2&&&*&&&&           =                                      3>",
"                    $====4>:::*                                                      %>;&&      #,>:>>*                             **&-;*;-;;;*&&;;;&         ;9                                      :",
"                      ,,@>,::66,                                                       %&-=       ,,>:,=                                        &;;;;-&&*       8                                      <",
"                      ;<:><@;,,,==                                                      %%*       =<,,:==;                                          $-;;;=      <:                                      ",
"                       ;>6   ;:,::,4                                                      =;:       =::=,=<                                           OO;;       ;                                      ",
"                        @<>    =<::=::                                                      o>      &2>::,,<                                            -;>      &<                                     ",
"                         <;     <:::,:=:                                                     <<     &=:,::,:>                                            <<      #8                                     ",
"                          %;&   X:::::,,,,                                                    ;%      @:,::,,,                                            $%    :18                                     ",
"<,                         ;;&    ;;>>,,,,,,                                                          $<><:<,,4&                                           :>     333                                   ",
";===2                       &===    :>:::::,==,=                                                        <<::>>,&&                                           <     <1=&                                  ",
".::,,&66                     ;==     &@:,,::::====                                                      ,<,:::6,=4,                                         <     <<2=                                  ",
"    @>6>=,                    %;=;#&    ;,:::@==::,=:::::=:<==,,,::,                                      *;:,::,,,,=:                                       ;     ;>>6                                 ",
"      ,::,2<                   $-;;<      <<o%;;==,,::<<::::::<<;:<<$#,=                                   $;:,,=:,,::=,,O                                   ;     $@>7<                                ",
"        @,,,&-                    -&--            46::::::::::<<<<7@@:<>>=                                  O@=2==,==::::                                      *    @643                                ",
"        ;<<>,<                    *---**                           @:<<>>:,,                                 -;,,,,==:,,,>,6=,,=,6,>>>0                        +    #,5<,                               ",
"          :,::;&                    -&;;&&&*                            ::=:<                                   :,:::=,,;&;=$%&%6>>>,,,,,,                            ,:<<                              ",
"          ==:::;&                     -;-%;;*&                            ;;2=                                    ;;;;;;;&;&-;;;<<<<<=,<<:@@                          =:=,,                             ",
"            @<<:;@                      -%%;;;;;;;;;;;;;;22;;;;&;&         -,;:                                           O;=;-X    &;o=:,6>3<                         &%=26,                           ",
"            :<:<=:,                         &;;;;;;;;;;;<<;;;;;&&&22        *:=:                                           ;;;;&        =<63<>,                          <,6=95                         ",
"%           @=;:==*                                           $%%&&&&&       O;;=                                           $&2;*&          ::;&                           =4455*                       ",
":            :::;==:                                             ---&%%$      ;;;-                                          -&*-&&;;&&        ;%:                           483,>,,2                    ",
"::            :==::;:                                              --%&;       -<#                                          22&&%&*;;&&;&&     X#<                             ;:=62*XO=                ",
">:            ::;::<<:                                              -;--;=      >,6                                             %&*;&&&&@=-    @>>*                             @:><  =<,====&          ",
"3>,            %;:::===                                               --;;&      =,,                                                 &%;-&-*     :::                               $-;;@=&&==@@;==,,2=  ",
"<,,            $<::::=:%                                               $%=&      @::                                                   ;=@;;O     @::                                      =;;@@@@;;;,:,",
" 2:             :66::=:;#                                               $-;;;     ::,                                                    <;;;*     ;<6                                             <>3<<",
" ,:              @>,:,::=;                                               $;;;     :7=                                                     ;;&-     %>>                                                ><",
"  &;#             :<<:<<:=--                                              --;&     &=                                                      &%%-     ::=&                                               O",
"  =<&              ;<::::==;&                                             -%;;     o36                                                     $&;-      :>=                                                ",
"   ;<=               :===,;;%&                                             %;;-     ;3                                                      %;&;     .;:-                                               ",
"   ,:=,                <6<;,3<2                                            %;;;     @=3                                                     %&;;      ,&X <                                             ",
"    :=&                  3$6>,,,                                            :&**     $<                                                      ;;;        ;<                                              ",
"    @=;;                   1::,,                                            X;;;      ;&                                                     %&&%       ;<<<                                            ",
"     ;22;                    6::@                                             %--      <                                                      %%$        :<,>                                           ",
"      222=                   3::<                                             ;;;*     1>                                                     %-%         %=>>                                          ",
"       O;;-                   O;,,                                              ;&      3<                                                     $;:         -<:==                                        ",
"        &&*2-              -   ;<>,                                              ;;@     ;--                                                   $;:          %:,:,=                                      ",
"          ;;;&&&                @:4                                               :@       ;,&                                                  %-;           <<6:#O                                    ",
"          ;;;;=&                =:>                                                        ,,,,,,=                                               ;-&           <,:<-                                    ",
"            -;%--&               :>7                                                        @=,<<:,==,                                            ;-;           :>6<,=                                  ",
"                  ;;              :37                                                         ,:=:6,===;83                                        ;;;&           <366,=6                                ",
"                    ;&            <<3>                                                           @4:::==>66                                        ;;:              <<3347                              ",
"                      7           ;3<>                                                           @#:;;;,>>56                                        $;;;              33333=                            ",
"                      76           %::=                                                            O;;  <>4==>                                      O.&;&&                 333,,                        ",
"                                    o:<2                                                             -- .94>==>*                                       %--#%                 866,=                      ",
"                                     >>,=                                                             ;;   ,,,>=:                                       $$%%;;                <<<<:<=6OX                ",
"                                     6>,;                                                             O;@   &>>::#2,                                        -;;$                     <76,#2=            ",
"                                      @=:=                                                              %;-*  ::::,,                                             6,<<6                >@<=<<<=          ",
"                                       ;::=:                                                             ;;--#   :<66,,>                                                                   ::::         ",
">                                       $<:=                                                              %;;;    ,6,@:4=3                                                                    <@        ",
">                                        ;<:,5                                                             $;&&     =<<4#<,>,,>666>6,>,,                                      q               :;:@      ",
":=                                        o;<>=&                                                             -;-          ;<<,&4<<><::,,:=                                                       %%     ",
"::                                          #:::&                                                             ;;&& .          &>3>>>,:==:;67                                                      @>    ",
">,:                                          .::=>&;                                                           $--&=                   ::=66,,                                                     ::   ",
"666                                             3444                                                            -;%&=*,,                &=:>,=2=                                        &           6:  ",
"6,,=&                                            4>,====;=                                                        $$&&;;&&                ;<>>,=&                                       1:          ;:& ",
" %:=@                                              ==@:=@=66<,<<;;                                                  &;;;===;;;              -<<::&                                       ;           11 ",
" .::<;                                                  %&5>1<<<<<::::@@::                                              @;,;;;&***            @<::,                                       ;           %;",
"  <676=                                                   4:  <<<<<<<<<<<=46                                            &*;;&&&-%%2*2;        #=::6                                        X          @;",
"   ;<<<=                                                              :<:<<<,,                                                 -;;&;%%@%       X:,,,&                                       $          ;",
"    @>,,                                                                ;:<;,:==                                                $--;;2;$O        @:@:=                                       $          ",
"     ::,,>#                                                               .<::::>                                                   &6;;2,        :@:=                                       ;@         ",
"     ::,43>                                                               X1::<<:6=                                                 #:;;;;;       ::<:,                                      %:         ",
"      =,>>,= ;;:                                                          X& 3<:::@=                                                   -;%;&        :@=<&                                     ;,        ",
"        <><< =<>4                                                          %2  %;==,O#                                                  #%&%;        ;;6:;                                     -        ",
"          ;;<><><,,,<:::<<,,,,,,,6                                          99   :<<:;                                                   ;;;%$       .;=,;=<                                            ",
"            ::>3<<,,<,><,,,,,,,,<,6,6$*2                                    389   :>::,+                                                  ;;;;         ;,,=:##                                          ",
"-               :<<<:::<::;;,,,,,:<::===::,,                                 33    %::,<=                                                  %;=;-         <;@>62                                         ",
"=                         X ;;;;;;::<:::::<<,*                                 :    @@:<7<                                                  -;;-           @<,6,;&                                      ",
",;                              $:<::::<<:<<,,,,                                     %:,66+                                                  2;;&          .@>62=:>6                                    ",
"=;                               :><<::,<,<<,,,,=                                    %@:,,&                                                  ;;;=           %:<X=>>>:::                                 ",
"%&&*                               %@<:<<:::::,,===;                                  @@:::&                                                  $;;-$              36<,=,,,;;;                            ",
" ---;&                               <:<:,:;=:<::=:,,                                 &:::,:@                                                  -%64<               @;;<2,=;;                            ",
"   ;;;&O                              ;;;=<,::::::===>                                 O<,>::=,                                                 o65<::                646, $%%;,2266                    ",
"    ;=,2                                  ,,,,,,::=:=>#                                 :::,:,,=                                                 ,;@,6=,                      =>>>>><<7                 ",
"    %-2;&&&&                              @=,,<::===::==                                 ;:,:::==,                                                $%:>,,,6                            ;%X,<:            ",
"      ;;;;2;=;          ;;,;;,;;;;          ;:oO:====>,>=4                               ;:<::::==,&,                                               &=,6,>:&                              ;1,6          ",
"        -&22;;;     ;;22;;%;;;;;==#*              &;5,>,:;                                <2<::::=,=,o                                                @67>>>>,                8            <46<         ",
"          -+;;;,=@22;=22,,X;&;*;&&**==&             76>><60                               >6,::::=,,==&                                               O.@>>>3>@&              1               :;        ",
"              %@@@=;;%          $---&&&&&&          27<,<,2                                :<,,<;=:;:==@<                                                 >>>:<<====                           ;-       ",
"                                    %%%%&&*&          :::<<3                                =::,36::;=,:,:                                                    ><==<<                            ;;      ",
"                                        $$&&&;          ,<><                                 :,,= ;<@<::6>=*                                                      %@::                            :     ",
"                                          -&;;**;=       :>>6                                 :<==  &<:,,:,,                                                        ::                            =%    ",
"                                            %--o%;;*      :::6                                  <<>,  ;@:,,,,,                                                       ;;&                           %,,  ",
"                                                OO;-&       ;@                                   <<<     ;::=,3>>                                                     X;&                           ,,  ",
"                                                   ;&2       ;<                                    :>@      @<>:%  2                                                   ;==                          =>> ",
"                                                    -,,=     #:$                                    :<,6,     ;;;<<=&&                                                 %:,,                          >> ",
"                                                      ,;       o&*                                   <<<34>@      3;;;,><,,>,><,<,<6<,,,<,                              :=:                           :=",
"                                                       $;;      :=                                      396<>,o=<64   <6>>><,<<<          ;;                            @@36                          <<",
"                                                          ;-    &%:<=                                     333333<33<<   6644               :<<                          :>6>&                          3",
"                                                          --     %:,,&                                        3111<-          =*222&       ::<:                          @>:%                          7",
"&                                                          -;;    @==,;;-                                                     &&,,,&%;%&     ,<2                          :<@                           ",
":=2,                                                        -;      &::==:                                                          $o;%;     :<,,                        ::@                           ",
">>:,,#                                                       -2      <<,:::                                                           ;;;*     ;,=                        ::<,                          ",
"33:,=3>==;                                                   -*      >=,:66X                                                            &;;     &%=&                      ::>6                          ",
" ;@<==,=;&**  -$                                              &-      %=,<<<,                                                            $%&      ,:=                      <><;                         ",
"   ;;=:=@:,;,=;;=;                                            ;-       ;::<<,=                                                            $$$      %=,                     :::%                         ",
"     ;@:@:3;<:<,,<62                                          ==        =:<<<<=                                                             $$#    X;=                     ::>>                         ",
"      #   ===<<66<<2o                                         @%        @:::;=,=                                                            X-;     ;:                     ::>>                         ",
"            ##::::<::=                                        $%        &3>:;===&;                                                           .$-     ;=,                   ;:,<                         ",
"                  <<<=@;<                                      X$         ,;@::===*+                                                           ;;    ;;:=&                 ;:<:                         ",
"                    @:<;6,                                      $         X;:<:,:=,>                                                            ;     :;:                   ;::                         ",
"                      <;,;;                                     >>          ::#<==,<=&                                                          ;#    ::,3                  ;::                         ",
"                       %:;;:                                    ::          O<<  %:::=;                                                          ;     ;>>5*==               <<&                        ",
"$                        %&;;                                    :            :<  ;::=;;                                                                >>42==               <>=                        ",
"@@%*                       ;1=                                   ;=           #4    :=:=X                                                               =;>:<O&              .>=                        ",
";;;;**                      @==                                   ;            ,>&   =,,,,                                                              %;>:,>2               >=                        ",
";;;;;;&&==                   ;&,                                  ;-            %@@  .@;:=*                                                               <<,,=,              :::                       ",
" -;&;&&&-&&--                 :>                                   $=;            =<&  :==;@=&                                                            ;:,,<,=             o&>                       ",
"    ;==;;%-;&O-                #>                                   :;             X=O  :::==:>,                                                          $;:<,,<,              ;<                      ",
"            @=*;;              #<6                                   ;<              ><=,,,===,,2,                                                         &:<:::,,             :<                      ",
"            %;**&;              @q6,                                 .;%               *,==::,;,::=:                                                        ;,:===;=             ;<                     ",
"              ;-;;-$             04:                                   X=                  @::@;;==:=;;;;;                                                   ;;;=:::==            <<<                   ",
"                ;&,;&-            >::                                   ;<                     ;;,>::@:@::=:<                                                 @@:;::,==&          <;=$@                 ",
"                 -;;;&            >:6:                                   <<<                      ::@;;;,:::@==,                                                :;=;,:=,=@=        %=:,>                ",
"                  ;;;%;            %<:O                                    ::<,4                     %;:,=::::==                                                 :&$<>,,,==,         <,,:               ",
"                   ;;;;             >:>                                      <66,&                     &==:<::::,>                                                 ><>>3,:,6=-       ::,=&              ",
"                    &,=&            =>>>                                      666,66                    =,:::::::=                                                      %o6<%$#*     .:,,=@:            ",
"                    %:=;;            :=>#                                        ,,6>>                    =::::,:@q  :<                                                   X&&--;       #>::6,           ",
"                      ,;;@            ::;#                                        %::<,,,,                #::,=:=,4& .@@                                                    .;---        ;<,;&          ",
"                      *;;;*           ;::::>                                        =:<,,66,,               6,=6=,:;  @;,,                                                    ;-;;        ::@@;&        ",
"                        ;;*&            >,66                                           %:66,,,,               @>>,>X   ;,,=                                                   .---&        &66664       ",
"                        &;=;            >>44>:                                          @,,,:,,                 :>67   %:>=66                                                   %;;         ,64>:#,,,=,,",
"6,,,                     -=&&            <6,;:&                                          ;:<:,,,;               %664    @;6<,=                                                  %;;-          %;::=:=:::",
"<::,<<                    -%;;&           :<;><,                                         %:<:,,,>6               3:><     >>8>:<6,                                               -;-               :::;;",
"  :;::=;                    $;;-            ;:<<>3                                        ;,;:<<@:@               :,:=     ,7>><<,                                                ;-%                   ",
"  :::<=;                    %;;-              4363:>::                                    @;;<<,:>==              :::,,     <3>><:66>>>>>>X46,                                    &&&&                  ",
"     <;:=@                    $-;#              *X#>,;66                                   %:,;:46,,=              O<;,,       %@@=&,,,63<33<>>>                                   &;--                 ",
"       3<;:@                    ;;,               63; 26,=;=                                 &@;,=::,=              ;%;,&         &%<<<<* 3<>>><==                                  ;&;$                ",
"        %,46                    %&&#                  ,,<=,,*-=;                               ;<:<>,=&               ;;;*               O;1<<><<>==                                ;;;;%               ",
"          >>@%                    ;&#;+                  ::,,,<,===:                            =:>,>,,               ;;&=2                 @:>><><,5                                ;@;*,              ",
"          @<::=                     o&; ;@,,                  ;;=:=;;;;2                         @><<:;;               $-%;;                  ,<<<<<:=;-                               ;;&&&            ",
"           ;::>                         %<63<<                    @@;;@%                          #>,;<;                %%%%&-                    =:@:=;                                ;&&&**          ",
"<3          @@,>                                                      &<<<                          <,<<>=                ;;;;=,                    >48::=                                  **&----** 22",
".<;          %,>                                        3              ,<;3                         ::<<>,                ;&&;;=&&*2**               ;,<::,                                 ;*-----;*%;,",
" .X;         %<:,                                         #O             @<3                         :,<:6,                 -&&&&;&*&&&&&&;;           &<;,;&                                     O-&@&;",
"   ##         ;:,,                                          66            :<,6                       %:=<>>                    ---;;;;&%&&;;&&;&        X;:,:==,                                        ",
"               <::                                                         <;&#                       :,<:,                       :;;;;%%;;;;;;;;,        >,,,>>4X*,      *                             ",
"       1       :>>,                                             =           X<,                       ><<,,                               -;;;;;;;,@=        ,>>,3,4,:,,<&0                             ",
"                ,,:=                                             ;1;         ;<=-                      :,<::                                  ---&-;;&          %#>,,,,,==<;;@                          ",
"                ,<::                                               1-#        ;;=,                     @:::;3                                   $;-&=;;           :,,=,,;;=;=:,3                        ",
"                ,:<,6                                                O*        <<:                      :;<:=                                     ;%&;*&                  ==@@==,,                      ",
"                &:>,:                                                +2;       ;=:6                     ::,,>>                                      -*&;&&                  &:==,=,>                    ",
"                  >::=                                                 --       ;;<>                     @=,,:#                                       %-=;&-                  %;:;=&@                   ",
"                  >:=:<                                                ;-=       ;<3                     ;::=.%o                                       ;;&&%=#                  :::=:,                  ",
"                  >:::==                                                $%%       <<:                     ::=  <                                        $,;;=@=                   ,;<:=                 ",
"                  >::,:;#                                               &;&       3<<>                    >:>* 2<:                                        <=;&=                   6=:<:                 ",
"                   :,,#::                                                 -&       ;<<=                    :>0q ::::                                       o%--&&;&*                @<3,                ",
"                   <<,&;;;                                                ;--      %:<<                    :,>6  <>>                                          %%$%-*,&&%&&           1<<,               ",
"                    ;<O @:@                                               ;-&       ::::                    <>>2  ,>:                                           %=;&&%@@;-&&          <23               ",
"                    ;<- :::&                                              &;<&      <4<=                    :>>,   ;:@                                               ;&==*=;,         ,,3&              ",
"                    ;:-#  &;>                                              #,@      -q>:&                     ><%  &,<*                                                  ,%&&=*        %:>              ",
"                     ::=  :<<=                                             $,%       6><,                     ><   :6,:                                                   .@;*-         @35             ",
"                     <>>: <<::=2                                            =%&      =:7<;                     #=<: ;,6=                                                   $;--;&        75             ",
"                     <>:: 333<6=                                            ;;;      @:5<:                      =,:  >>:                                                     ;%;&         <O            ",
"                      ><<=   3::,,                                          .;;;      ;<::=                      ;,:#%>@>                                                     $-;*-        -;           ",
"                       <::3   :<,,::::                                       ;;;       ;:,qq                      ;;&& ::,                                                     ;==;        ;6,          ",
"                        :<,=    <<<<<>&,                                      &;=       @65q                        == @:,O                                                     =,=*        6>##        ",
"                        @<,<4,  <<<<::>666  ==                                &;;&      %656&                       =,,,>:,#                                                    %;;*        *;>>        ",
"                          %;,,>,  <:<<,,:>::;;=;                               %;;      %>::,                       $O>6::=;;#                                                   --$&%        >,3>      ",
"                           ;;<3>        @:::;:::==                              ;;       ;,:=                         :@==:,4<                                                    -$*@         <,66>    ",
"                             #33<<<         $;<:<::+                            O$&      ;,:>:                          @=::<>4                                                   .&=@;          36<>:  ",
"                             :<X>66,,,66&   X >:,>66                             -;       <<,@=                           :::>4                                                    ;;;2;          33><26",
"                               &>6<;:::,;;==  .%:,,,==                            ---      ::==&                            :<<:@==;                                                ;;&--$            =>",
"                                 &:;::;:;;::,,   :,,=:O                            -;&     %:>::3                             <::==:=,6,66                                           ;;&=&&-            ",
"                                        733:,=;   ;,=:4,                            67      <6>33:3                             :==::3q,464 X#                                        ;;===:>           "
};
