/* XPM */
static char *_f48ad2d7a2f4badf2bceb16e2c777efQzr989z8EApzEiWh[] = {
/* columns rows colors chars-per-pixel */
"18 21 1 1 ",
"  c white",
/* pixels */
"                  ",
"                  ",
"                  ",
"                  ",
"                  ",
"                  ",
"                  ",
"                  ",
"                  ",
"                  ",
"                  ",
"                  ",
"                  ",
"                  ",
"                  ",
"                  ",
"                  ",
"                  ",
"                  ",
"                  ",
"                  "
};
