/* XPM */
static char *_cb82e1f52434234b500fa77fcad71baF1cDsT1EgTnOxsnW[] = {
/* columns rows colors chars-per-pixel */
"200 200 170 2 ",
"   c None",
".  c #28131B",
"X  c #3E151A",
"o  c #1A1523",
"O  c #181B3A",
"+  c #231327",
"@  c #22162D",
"#  c #2A152B",
"$  c #2C1C28",
"%  c #3C142C",
"&  c #361D2C",
"*  c #261B32",
"=  c #2E1F32",
"-  c #2A1835",
";  c #2E1C37",
":  c #261F3C",
">  c #331932",
",  c #351E3B",
"<  c #2A2038",
"1  c #382134",
"2  c #30223B",
"3  c #3C243B",
"4  c #4A1C32",
"5  c #641F36",
"6  c #452935",
"7  c #53283C",
"8  c #7C213B",
"9  c #633138",
"0  c #743335",
"q  c #3D1E42",
"w  c #2C2142",
"e  c #352941",
"r  c #3B2D47",
"t  c #3F3650",
"y  c #3A3E5C",
"u  c #4F304A",
"i  c #5E334A",
"p  c #4A3F5E",
"a  c #6C294E",
"s  c #743944",
"d  c #7A334D",
"f  c #554051",
"g  c #554C65",
"h  c #766374",
"j  c #8C213F",
"k  c #80373F",
"l  c #943434",
"z  c #963D3A",
"x  c #B52631",
"c  c #A63F3D",
"v  c #CD4938",
"b  c #852E4D",
"n  c #992446",
"m  c #922C42",
"M  c #942C4A",
"N  c #8C3841",
"B  c #9C304B",
"V  c #942852",
"C  c #993750",
"Z  c #A42847",
"A  c #AC274B",
"S  c #A02D48",
"D  c #A62C4B",
"F  c #A0284E",
"G  c #AB2C49",
"H  c #B32B49",
"J  c #A5334C",
"K  c #AB354C",
"L  c #B23E40",
"P  c #B3364E",
"I  c #B32E56",
"U  c #A03052",
"Y  c #A23750",
"T  c #AA3B52",
"R  c #894246",
"E  c #9E4540",
"W  c #99494A",
"Q  c #8E4153",
"!  c #9A5156",
"~  c #A54646",
"^  c #AA4841",
"/  c #A24F49",
"(  c #AF4A49",
")  c #B64641",
"_  c #B64D47",
"`  c #B7404C",
"'  c #AF5C4E",
"]  c #B25447",
"[  c #BB5247",
"{  c #BC5A4F",
"}  c #A04250",
"|  c #A65C5E",
" . c #BA5251",
".. c #BE6258",
"X. c #C1484C",
"o. c #C3564A",
"O. c #CF5B4B",
"+. c #C14D5C",
"@. c #C95451",
"#. c #C65E50",
"$. c #CA5B59",
"%. c #D85E59",
"&. c #CE6454",
"*. c #DC6757",
"=. c #D76E5F",
"-. c #DA795F",
";. c #E4624C",
":. c #C77860",
">. c #D37A6E",
",. c #E97463",
"<. c #E77A6B",
"1. c #DC8F7B",
"2. c #E2806B",
"3. c #EE866C",
"4. c #E5867E",
"5. c #F48E75",
"6. c #E89070",
"7. c #EE937B",
"8. c #F19876",
"9. c #F89578",
"0. c #B4888E",
"q. c #CB9288",
"w. c #D79E83",
"e. c #F19B82",
"r. c #DDB798",
"t. c #F0A386",
"y. c #FAA080",
"u. c #FBA788",
"i. c #F6AE8D",
"p. c #FCB38A",
"a. c #EAA493",
"s. c #FAA090",
"d. c #F2AC93",
"f. c #F7AD98",
"g. c #F0B394",
"h. c #FBB495",
"j. c #F4BD93",
"k. c #FCBA91",
"l. c #FBB99A",
"z. c #C3A3A2",
"x. c #DEB0A3",
"c. c #DAB8B7",
"v. c #E9ABA2",
"b. c #FAA4A2",
"n. c #F0B7A0",
"m. c #FAB8A1",
"M. c #FBBEA2",
"N. c #F3B2A9",
"B. c #F5BBAA",
"V. c #FABEAD",
"C. c #EBBBB3",
"Z. c #FEC09B",
"A. c #FDC39F",
"S. c #E4C0AD",
"D. c #EEC0AA",
"F. c #F5C0A5",
"G. c #F8C7A5",
"H. c #FECAA5",
"J. c #F7C4AD",
"K. c #FDC4A8",
"L. c #F7CBAE",
"P. c #FECEAE",
"I. c #EEC8B1",
"U. c #F5C3B5",
"Y. c #FDC9B3",
"T. c #F9D2BA",
"R. c #EDC6C0",
"E. c #E9CECB",
"W. c #FAC8C2",
"Q. c #FBDCC8",
/* pixels */
"K.H.K.K.H.M.K.K.K.K.K.K.K.A.A.A.M.M.M.K.K.A.M.i.9.H.P.P.H.H.K.K.K.Y.H.K.A.M.K.K.K.K.K.K.M.M.M.M.M.M.6               = H.K.K.K.K.K.K.K.M.M.Z.M.A.A.A.A.A.M.A.K.K.K.A.K.e.<.P.P.P./ Z.K.A.K.K.K.K.K.K.K.A.K.K.K.K.K.K.K.K.K.Y.K.K.Y.Y.K.K.A.K.1             $ K.Z.M.A.K.K.K.K.K.K.K.K.M.K.K.M.M.K.K.K.K.K.2.&.H.K.K.K.K.K.K.A.A.A.M.M.M.M.M.M.M.K.K.K.K.K.K.K.K.K.K.K.e             $ U.M.M.Z.h.Y.T.Y.T.y   *   -.",
"            _                                   E                   C             )                 B.&           $ a.            ^                                                                                                         m.=         = W.                                                O./                                                     M.=         $ W.                m.r   g > y.",
"        c                                         ]                  .                                B.@       2 B.            [                                   z                                                           o.  _         C.:     2 S.        ^                                                 o.                                          ^     D.<     & C.              c     K.t   q 4 ",
"      /                                                         y.                              #.    m.*       * h.      [                                       &.e.        / (                                                     { o.    B.:     2 J.      ~                                   #.                                                                F.<     > V.          E         M.g     o ",
"      [                                                     '                                   5.    h.*       * i.    ]                                       ] f.{     { /                                                         (       M.*     < J.   . .@.                              (                                                           &.  [     l.2     # M.                    V.I.    o ",
"                                                    ^                                         { 8.i.( h.=       ; i.      ~                                   /                                                                               l.<     < K.R                                   E                                                                       h.w     # M.        (             I.      ",
"                                                        o.                                      ^ g.  h.<       ; i.                                        ~               ]                                                           ]     h.<     ; Z.7.                                #.                                                                        l.w     # M.      ^                 T.=   ",
"                                          h.e.                                                        Z.=       - i.                                    [ _                                                                                   h.*     ; Z.                                                                                                            l.w     * M.  z                     T.<   ",
"                                          k 9.                                                        l.#       ; O.                                (       &.&.                                                                              f.*     , l.                                  Z.                                                                   .    l.<     * M.  (                       z.  ",
"                                            [                                                         8.#       ; i.                                5.                                                                                        h.;     , l.                                  8.                                                                        M.<     * M.                          N.$ ",
"                                            O.                                                        k.#       < h.                                9.                                                                                        l.-     ; l.                              [                                                                             l.<     * M.                          n.. ",
"                                                                                                      k.#       < p.                            ^                                                                                             l.*     ; l.                                                                                                            l.<     - M.                        k.z 4.",
"                                                                                                      h.#       ; h.                                                                                                                          l.@     ; l.                                {                                                                           l.*     - M.                      ( c     ",
"                                                                                                      l.#       , h.                                                                                                                          h.*     - l.                                                                                          { #.              M.;     - l.                E             ",
"                                                                                                      l.#       w h.                  (                                                                                                       h.*     > m.                                                                                          y.u.              M.2     * l.              c h.5.t.        ",
"                                                                                                      l.-       , h.                                                                                                                          p.-     > M.                                                                                        Y.      f.5     ^   d.:     * l.                              ",
"                                                                                                      l.*       > h.                ^                                                                                                         h.*     # M.                                                                                      _ O.        ~     f.  F.:     * h.                              ",
"                                                                                                      l.#       > <.                                                                                                                          h.*     - #.                                                                                    ] 3.                  i.M.<     * h.  c       ( _                 ",
"                                                                                                      o.-       = *.                                                                                                                          h.*     # (    .                                                                                  z                     m.<     * h.  e.  L                       ",
"                                                                                                      u.*       * l.                [                                                                                                         h.*     ; M.                                                                                                            m.<     * l.F.                            ",
"                                                                                                      u.*       ; h.              W                                                                                                           l.*     2 K.                                                                                                            m.*     * M.                              ",
"                                                                                                      l.;       , p.                                                                                                                          Z.*     2 Z.                                                                                    3.                      m.2     * l.      ]                       ",
"                                                                                                      f.*       , i.          (                                                                                                   _           M.;     , Z.                                                                                O.E 3.                      m.w     * l.                              ",
"                                                                                                    a.G.*       , h.        _   ]                                                                                             (   s.~ _ _   E *.>     2 u.                                                                                m.^                         n.:     * h.                              ",
"                                                                                                    C.= f       , h.      ( #.                                                                                                y.              =.>     < 9.                                                                                                            m.<     * l.                              ",
"                                                                                                  m.#           > h.      (   [                                                                             ~     h.h.7.z u.u.                m.;     ; u.                                                                            ) u.y.                          l.<     * l.                              ",
"                                                                                                Y.i w           > g.                                                                                        O.        h.                      m.;     ; h.                                                                                                            l.<     - l.                              ",
"                                                                                              d.Y.#             > j.    h.d.                                                                              p.                                  h.;     ; h.                                                                                                            l.<     @ l.                              ",
"                                                                                              x..     J.-       ; Q                                                                                                                           h.;     - h.                                                                                                            h.*     @ l.                              ",
"                                                                                            v.x.h   B.K.-       ; M.                                                                                  V.9                                     h.;     - k.                                                                                                            h.:     @ l.                              ",
"                                                                                            n.+   B.  M.-       ; l.                                                                                3.R s                                     h.;     > h.                                                                                                            h.:     @ l.                              ",
"                                                                                          C.#     m.  l.#       2 l.                                                                                                                          h.-     ; k.                                                                                                            h.:     @ l.                              ",
"                                                                    t.  J.V.              R.+     F.  k.#       2 l.                                                                              e.d                                         h.-     ; h.                                                                                                            h.:     * l.                              ",
"                                                          E E     M.2 : : * z.e i.e.7.Y.Q..     L.    p.#       ; l.                                                                              (                                           h.-     ; p.                                                                                                            k.:     : l.                              ",
"                                                          h.Q 9.9.# i d.g.n.5 B.1 = = 3 ! t   L.      k.*       ; l.                                                                            ^ 8.                                          h.;     > h.c                                                                                                           u.w     * h.                              ",
"                                                      C                       B.Q.q.w.n.1   @ I.      p.*       - i.                                                                        N.X T.                                            l.;     = p.                                                                                                            h.:     * l.                              ",
"                                                      c                             x.<     c.        p.*       - 7.                                                                          s.                                              h.*     > k.                                                                                                            h.:     : l.                              ",
"                                                7.E                               U.@       Q.        p.*       , O.                                                                        W f.                                              h.*     > k.                                                                                                            k.w     * h.                              ",
"                                              e.&.                                U.*     = A.        p.*       > G.  [                                                                   z                                                   l.;     - l.p.{                                                                                                   O.    l.w     * h.                              ",
"                                               .                                  U.@     ; M.        k.*       > T.                                                                    (                                                 ( 3.M.;     < A.                                                                                                c           h.:     - k.  3.{                         ",
"                                            #.                                    { *     3 Y.      ( t.*       > Y.                                                                    t.                                                    M.<     < A.                                                                                              [             h.:     - k.      N.                      ",
"                                          E &.                                    W.@     Q.      /   p.-       > M.  z   m./                                                       R                                                 /       M.w     2 Z.    {                                                                                       (  .    {       l.w     - k.      /                       ",
"                                          ,.                                      Y.*   2 Y.      [   p.;       > l.    y.N                                                       *.y.                                                3.{ z   G.2     * Z.    6.                                                                                      5.[   (         j.:     - p.        3.                    ",
"                                          g.                                      U.*   ; Y.          K.-       > l.                                                              k.                                                          D.;     ; l.    _   c                                                                 3.              i.      (         j.-     > G.        ^                     ",
"                                          i.                                      B.*   # B.        t.b @       = J l.        g.                                                                                                            i.Z *     > B f.                                                                        [                       o.      i.M *     - N n.                            ",
"l.k.Z.Z.l.l.l.l.u.l.-.k.l.k.l.8.k.k.e.{ H.h.l.l.h.h.k.Z.l.l.l.Z.Z.l.l.Z.l.l.Z.l.h.5 *   * K.Z.Z.Z.A.n F *       = Y J h.h.i.l.l.H.=.j.-.M.m.m.k.k.k.h.k.k.p.p.,.l.h.h.p.p.u.u.&.H.Z.Z.Z.l.k.k.Z.l.l.l.l.l.l.l.l.k.u.Z.k.k.k.d.<.Z.k.l.l.h.l.M V *     * M j k.p.p.h.i.h.L k.%.h.k.h.p.p.p.p.k.k.k.k.h.h.Z.,.k.k.p.p.y.Z.l.k.l.h.5.j.p.k.h.7.Z.p.@.,.j.-.A.Z.Z.Z.Z.A.n V :     - M S K.M.A.M.[ p.p.h.k.k.p.p.p.j.",
"Z Z M Z Z Z Z H G G D A F Z D D Z D n D n F Z Z Z Z Z Z Z D V Z Z Z n Z Z Z A A D d *   * S Z Z Z Z U %           1 B n Z Z Z G n A G G Z Z n A Z A Z Z Z Z B B S Z A A Z n G G G n Z Z Z Z D Z Z Z V Z G Z Z Z S F n A Z G F S Z Z Z Z Z Z D 1         = B n Z A Z S M J G G G G Z Z M Z Z Z Z Z Z G G G G G G G G U D A S D G G Z G G D F S D K D Z Z G Z G G G G I 1         1 M S D D D J U Z n D D D Z G D ",
"Z D 4 Z G G a G P G G H 8 A Z Z D D D D 4 D A A A 4 G A G Z % A A S 8 5 A Z A G J #     @ D G D D D #               # J D D G G 4 G G 4 P G j A A A Z G G G G @ 8 A A Z H 4 G G G 5 D D Z Z Z Z Z G a H H Z Z Z D + n A A A 4 G G Z Z Z Z D =             $ S Z Z D D 1 K G D G G Z D & G A Z Z A G G D G G G G G H a H j J 5 G G G G G D 4 G G G & S n H G G G D D =             < J G G D G 5 J 1 D G G j G G ",
"> > < = , ; 2 > > = ; = = = > > > > > - * $ > > > ; ; ; > > , > 1 & = 1 > ; ; > -       * = > > > >                   $ # # > # * > > - > > ; > > > > > > > > > > > > > > - # - # - - > > > > > > > ; > , , > > > - - > > # - - > > > > > ,                 & > & > & & & > > > > > > & 1 = ; > > > > > # > > > > > & # > > > > > > > > > - ; ; > ; ; > > > > > > ;                 = > & & > = = * - > > = 1 , ",
"                                                                                                                                                                                                                                                                                                                                                                                                                ",
"                                                                                                                                                                                                                                                                                                                                                                                                                ",
"                                                                                                                                                                                                                                                                                                                                                                                                                ",
"$ $ * * = * * * ; < < < * * * * * * * * * * * - ; < * * * * * - >                   2 = * * * @ * < * * < < * * * * * * * * * = < * - * * * < < < < * * < < w < * @ * @ ; * * * * * * :                     3 = < < < < < < : * * * * * * * * * < < * < ; * , ; - < < * * * * * * < < * : : :                 * < * * = ; ; * - ; * * * = * * * * * - - - - - ; < * * * * * * * * * * * : < : * * * * * < * < 2 ",
"U.U.v.] A.F.D.D.F.F.D.F.B.n.n.F.V.V.B.F.V.V.V.J.F.F.V.J.J.J.J.J.U.$               + C.v.B.U.B.B.m.m.m.m.F.m.n.n.U.V.B.U.J.F.F.J.J.B.n.M.F.B.B.V.V.V.V.U.$.7.C J.B.B.B.D.D.B.B.B.B.m.V.N.$                 . D.n.F.B.B.F.F.B.B.M.K.V.B.V.V.V.V.V.J.D.n.n.F.( e.K.M.M.B.B.V.V.B.B.V.m.m.B.B.n.n.1             $ C.J.J.J.B.V.*.B.B.M.m.n.B.B.B.B.B.F.F.n.F.F.F.B.F.M.m.B.B.V.V.h.M.K.F.F.F.F.B.B.V.J.V.V.B.B.B.B.B.",
"                                                                  J.&           & R.                          y.                                             .                          E.1             . U.                                                Z.                                Y.3         & N.            *.                                              )                                     ",
"                  &.                                                v.<       3 b.~         /     ~                                                         _   o.              [         F.*         ; N.                                            !                                         x.2     < U.        @.@.  z                                                                                     ",
"                                                                    m.*       # k.        W                                                                                       /       B.*         * m.                                        x.O.                                          h.-     # K.    {   E                                                                                           ",
"                                                              #.    h.*       - l.  ] ,.    ]   [                                                               /    .              (     B.*         - h.                                        z                                       [     h.>     > M.      ~                                                         O.                                  ",
"                          {                                         h.=       > h.  5.i.            #.                                                                  !                 O.;         * h.                                                                                  o.  p.;     - l.     .                                                                  /                           ",
"                                                                    h.=       > m.V.                                                                                    [     (   {       t.-         * h.                                    <.Y.                                              <.;     - h.                                                                      #.                            ",
"                                                                    M.*       ; 2.                                                                                          #.      W     h.-         * h.                              t.    W                                                 k.>     > l.                                                                        {                           ",
"                                                                    M.<       ; M.                                                                                                  5. .  F.*         * h.                                f.                                                    k.>     > 6.                                                                                                    ",
"                          ~                                         m.<       ; K.                                                                                                        u.*         * h.                      E         u.0                                                   k.#     > M.                                                                          [                         ",
"                                                                    m.;       ; K.                                                                                                        =.*         * h.            3.  W E   y.                                                            7.n.#     , l.                                                                                [                   ",
"                            /                                       m.;       ; J.                                                                                                        F.$         * l.            3.                                                                        @.#     ; l.                                                                              {     ]               ",
"                          F.                                        m.;       ; 3.                                                                                                        K.=         * l.        ~                                                                             A.;     ; l.                                                                                      (   _         ",
"                                                                    l.;       ; f.                                                                                                        M.=         * h.    o.[   )                                                                           K.w     ; l.                                                                                          *.        ",
"                            R                                       l.;       ; m.                                                                                                        l.=         < l.  ^                                                                                   Y.2     ; l.                                                                                          5._       ",
"                                                                    M.;       ; M.                                                                                                        M.*         * M.  #. .                                                                          ^     9.<     ; M.                                                                                          3.c       ",
"                          (                                         *.;       < M.                                                                                                        F.*         * K.C                                                                             [       5.;     ; M.                                                                                                    ",
"                            (   [                                   h.-       = m.                                                                                                        ,.*         * M.                                                                          _           J.=     ; M.                                                                                            O.      ",
"                                                                  k m.;       2 M.                                                                                                        t.#         * l.                                                                        ^ _           M.<     ; h.                                                                                              ~     ",
"                                                                o.  m.*       2 M.                                                                                                        @.-         * M.                                                                      ^               M.<     ; n.                                                                                                    ",
"                              {       o.                        ~   h.-       < M.                                                                                                    o.i.m.-         < M.                                                                    7.9.              M.<     > ( @.                                                                                                  ",
"                                                                 .  i.;       ; M.                                                                                                    _   m.=         < M.                                                                  #.y.E               M.<     ; d.)                                                                                                   ",
"                                        _               #.{         i.;       ; M.                                                                                                        f.-         * l.                                                                                      M.<     : g.                                                                                                    ",
"                                                            N       l.:       ; M.                                                                                                    C   d.=         * l.                                                                                      h.;     * Z.  ~                                                                                                 ",
"                                          ^                         h.;       ; M.                                                                                                    ~   i.;         * l.                                                                                      h.;     * l.    O.y.                                                                                            ",
"                                          m.    W ~   l.]           l.-       , M.                                                                                                  ]     i.=         * h.                                                                                      l.;     * l.      _                                                                                             ",
"                                            e.' e.9.                l.-       , M.                                                                                                /       d.*         * l.                                                                                      l.;     - m.        /                                                                                         A.",
"                                                                    l.-       , M.                                                                                                        i.*         * l.                                                                                      l.;     * K.                                                                                                g.* ",
"                                                  =./               l.-       ; Z.                                                                                                ]       h.*         * l.                                                                                      M.;     * K.                                                                                                D.9 ",
"                                                  c                 l.-       ; Z.                                                                                          E 9.          h.*         * l.                                                                                      M.-     @ 5.              _                                                                                 m.o ",
"                                                                    l.;       ; Z.                                                                                            5.          h.*         * l.                                                                                      M.;     @ M.            o.$.(                                                                             b.1 w ",
"                                                                    m.;       - 7.                                                                                          y.            l.*         * l.                                                                                      M.-     @ A.                                                                                              b.* D.",
"                                                W o.                M.<       - k.                                                                                        9.              l.*         @ h.                                                                                      M.-     - Z.                  (                                                                         Y.* e J.",
"                                                  o.                l.2       - l.                                                                                      V.E [             h.*         * i.                                                                                      M.-     - k.                    ^                                                                     n.4   2 B.",
"                                              m.  o._               l.<       - k.                                                                                  ] h.                  h.-         * *.Y.                                                                                    M.-     - h.                    (                                                                     M.#   1 D.",
"                                              V.                    l.;       ; l.                                                                                                        g.-         * $ $ N.                                                                                  m.-     # h.                                                                                        c.=     R.r.",
"                                              ) f.                ( 3.*       ; 7.                                                                                /                       j.@         1     r 1 M.                                                                        #.&.  8.-     * l.                      &.                                                                v.$     C.  ",
"                                              N                 #.  d.*       ; {    .                                                                            u.]               {     O.*         # T.x.c.t u B.                                                                      7.(   y.;     * =.                      ( _                                                             f.$     t J.  ",
"                                            ~           &.     .    n.*       ; V.    {                                                                                           ~       i.*         > W.    z.  + Y.                                                                    W     i.-     # F.    O.                  #.                                                            M.<   g v.    ",
"                                          M.e.              [       n.@       ; V.  E     #.                                                                    [                         p.*         > m.    S.    =                                                                           i.-     # F.                    &.                                                              d.s *   r Q.    ",
"                                          /               (         g.#       > V.          W                                                                                 [   y.#.    k.*         > m.      U.  @ f A.                                                          '           j.-     # F.    s   ~                                                                           U..     e V.    ",
"                                                            [       g.#       # l.          h.                                                                                  N R       k.@         > m.        A.h o 1 C.                                                      E         c   H.@     # B.        5.)                                                                       f.:       e V.    ",
"                                                                  u.8 -       $ j V.0         s.~ O.R               E                                                                   H.M @         - P B.      ,.L.t   @ Y.                                                    e.          d.G -     * B J.,.                          '                                                   Y.@     = K.      ",
"P.T.=.    a.J.%.P.P.Y.P.Y.7.K.H.K.Z.M.M.l.l.l.l.m.u.&.Y.Y.K.H.H.m.Y } *       = b F Y.Z.M.Y.,.V.$.H.K.M.m.<.B.y.K.h.h.t.P.h.l.H.P.K.K.F.=.G.L.G.K.K.K.K.J.-.Y.K.P.Y.Y.5.$.L.-.2.Z.l.h.K.n Y -         * Q B V.M.p.J.U.w     6 H.P.H.L.L.T.L.J.P.H.A.K.<.J.3.&.P.Y.f.O.H.P.H.P.%.T.3.Y.K.K.V.J.J B -     * } j f.7.Z.f.d.&.H.A.Z.Y.H.H.H.H.u.m.M.=.i.i.2.Y.K.K.K.P.H.L.%.A.K.%.Y.Y.K.K.K.K.M.J.@ r     + V.m.K.L.",
"K P P m ` K P K K K K P K K K K K J K K J J D J P K K K J J G K S U ;           1 C B U B K J ` ` K K K K I K J J K K K K K K K K J K K T K K K K G G G G J K K K J K K K T S K J J S D I #             4 D J K K K B *     # D J J J J S P P S K K K P P K Y K K K P P K K K D P K J K K K J U >         1 M B J J J Y T K K K K J J J J J K J P J J G K K K K K K K K P P K Y K K K J J S B -       @ K P K G ",
"Z Z 5 C 4 m D G G G G G D G G G G G G K K K 8 J 8 J J D D D D S S %               & B S j m S K 5 J D J K 4 J J J J J J G G K J D S 5 U 4 J J J 8 S n D D D G G J j S J J 5 K J S S S D %                 > J J D S B -     # D D 4 B J m J j D G D G 8 K J J K K G G G G G K K K D D D D S S >             4 B B B S 5 J J J J D D D J J J 4 J 5 J S S J J 8 G G G D J D S 5 K J m K n S S M @       # G G G G ",
"- - - , @ - - ; ; ; ; , ; ; > , > ; ; ; > > > > ; > > ; ; ; ; 1 >                   > ; ; ; - ; - * - * - ; > > > ; ; ; > - > > > > > ; - ; - ; ; ; - ; - > > ; > , > > > ; > , ; ; - ,                     > , ; ; ; ;       ; = * > q > > > , - - - ; > > > > > - > ; > - - ; - - > > > > >                 , ; > > ; - - - ; > ; ; ; ; ; ; , w ; - ; - ; < ; ; ; ; , > ; ; , - ; > , ; ; >         @ - - - # ",
"                                                                                                                                                                                                                                                                                                                                                                                                                ",
"                                                                                                                                                                                                                                                                                                                                                                                                                ",
"                                                                                                                                                                                                                                                                                                                                                                                                                ",
"- - 2 2 2 2 2 2 , , q q w ; ; ; w : : w w < ; ; < - ; w 2 ; ; , , > > > ; * * < < * * < < : : : r                     , , , , 2 w w 2 w w w < :       # = 1 1 , , 2 2 2 2 ; 2 ; w ; ; ; - ; ; ; ; ; ; 2 ; ; ; ; ; ; ; < * * @ 2                   * - ; ; ; ; , w ; ; ; : : * ; : - - ; , - ; ; - - - ; ; ; - ; ; < : < w : < 2 2 < 2 w w < 2 e e e <                   * < ; 2 < < , < < < , , 3 * > , w ; w w ",
"Y.Y.Y.K.Y.K.K.K.K.K.H.M.8 M.M.A.M.8 P.H.L.P.Y.H.H.H.H.K.H.H.H.Z.Z.u.P.t.M.A.M.M.M.M.M.M.K.K.K.M.M.#                 $ Y.K.K.K.M.K.K.K.K.K.P.Y.d.    e V.J.M.A.Z.M.Z.A.A.K.H.T.0 g.P.l.Z.Z.A.K.A.A.A.K.K.K.A.K.A.K.K.K.A.H.P.T.K.*               & M.K.Z.M.A.A.A.A.A.M.A.K.Y.X.<.L.P.P.P.Y.M.H.H.A.Z.M.M.M.A.K.K.K.K.K.H.K.v Q.V.V.K.K.M.K.H.K.K.K.K.R.*               & T.P.H.H.K.P.o.P.P.P.x h.K.K.@.M.H.H.H.H.",
"                        y.          E                                                             m.3             = a.                        L.  r B.                        u.                                                Q.&           < K.                          u.                                            5.      [   ]               Y.1           = R.                                        ",
"                    / u.              o.                     .                                      I.@         $ J.                        Z.E   * N.                            e.                                    #.        n.#       < C.                              p.E                                                                 ^     K.;       = C.                      [             &.    ",
"              X.                      8.i.N                                                         D.-         * i.                          T.$ C.                                  ~                                   ~       n.;       * f.                              i.y.                                          E                 $.  ,.    m.-       - g.    `                                     ",
"              ( u.^ X.$.                  f.z   ( _ (                                               D.@         - u.                          Y.+ R.                                    ]                                   (     g.*       * i.                                                                              #.                        h.-       - h.  }                                       ",
"          ]     (                                                                                 g.D.+         - 8.                        M.7 F. .                                      { (   ( [                               n.*       * i.                                                                                  ^                     l.*       - u.                                          ",
"        ) f.[                                                                                     1.@ @         ; k.                        3.X M.                                          _   9.3.z                             o.-       * i.                                  (                                             ^            .          h.*       - f.i.                                        ",
"                                                                                              f.b.+ @           ; k.                      i.' c.                                                      e._ ^     O.                h.-       * g.                                                                                        /         W     h.=       * &.A.                                        ",
"                                                                                            J.@ @               ; k.                    P.f h c.                                                              E d.                h.-       * h.                                   .                                                E           u.,.N   p.*       * ,.                                          ",
"      t.                                                                                  l.h @                 ; p.                  l.| o U.                                                                  #.      ] V.      l.*       * h.                                                                                                  e.    i.*       * m.                                          ",
"    i.O.                                                                                N.X       T.S.+         ; k.                e.3 1 R.                                                                              )       l.*       * p.                                                                                                      j.f.*       = B.                                          ",
"  M.k                                                                               f.a.o       t.u.f.+         ; k.                i.; T.                                                                                        h.*       * i.                                                                                                        f.*       = F.                                          ",
"                                                                                  L.% O p     F.    F.o         ; k.                ~ D.                                                                                          h.<       * p.                                                                                                  ]     e.@       = F.                                          ",
"                                                                                u.* p       U.      n.+         - k.              | e.                                                                                            g.*       * h.                                  ^                                                                     k.*       = 5.                                          ",
"                                                                              N.$       Y.K.        m.+         - h.          $.  3.k                                                                                             l.*       - h.                                o.                                                                      j.=       * f.                                          ",
"                                                                            f.s       R.            m.@         : 5.       .    ~ ~ N                                                                                             m.*       * h.8.                        (                                                                             k.*       * n.                                          ",
"                                                                            f..     Q.              F.@         : ;.          ~ N.                                                                                                K.*       * O.3.  7.                    _                                                                             <.*       * m.                                          ",
"                                                                          7 e 1 V.V.                F.*         * M.      E ~                                                                                                     K.*       * d.  3.=.]       ] _ ( (     p.                                                                            Y.*       * 7.                                          ",
"                                                                        e.    K.                    M.*         ; m.      5.#.                                                                                                    M.*       * u.  9.o.    o.                E                                                                           Y.*       * n.                                          ",
"                                                                      E.u p S.                      M.*         ; m.  7.e.3.                                                                                                      l.*       * h.  ^ ~                                                                                                   Y.*       < m.                                          ",
"                                                                    z.* T.L.                        M.*         < *.s                                                                                                             h.*       < h.                                                                                                        K.*       < V.                                          ",
"                                                                  y.9 I.                            h.*         ; V.                                                                                                              e.*       = W.                                                                                                        K.*       < 3.                                          ",
"                                                                  X U.                              k.*         , l.                                                                                                              M.*       < {                                                                                                         H.*       * f.                                          ",
"                                                                  7                                 l.*         , h.                                                                                                              m.*       * i.                                                                                                &.      V.*       - l.                                          ",
"                                                                c d.                                h.@         , h.                                                                                                              m.*       * h.                                                                                            (       (   M.@       # l.                                          ",
"                                                                7.^                                 h.#         > h.                                                                                                              m.*       * h.                                                                      O.    #.                          l.@       * j.                                          ",
"                                                                3.                                  3.#         ; h.                                                                                                              ,.*       * h.                                                                &.      ^                       o.  o.  p.#       * =.                                          ",
"                                                              4 l.                                  m.*         , l.                                                                                                              m.*       * n.                                                                                                    &.  l.*       - &.                                          ",
"                                                            /                                       M.#         , l.                                                                                                              B.*       * n.                                                                                                    l     ;       ; t.                                          ",
"k.                                                        z s.                                      m.@         , l.                                                                                                  {           F.*       ; B.                                                                    (                         O.        A.#       * t.                                          ",
"@ B.                                                      c u.                                      M.*         , l.                                                                                                {             -.*       ; D.                                                                  [                         @.          J.@       * t.                                          ",
"O m.                                                      u.                                        M.;         , l.                                                                                            W                 F.*       = V.                                                                o.                                  t.K.k *       * i.                                          ",
"  , e.                                                                                              K.*         - l.                                                                                                              F.*       < ;.                                                              (                                     q.# r         - h.                                          ",
"  @ x.                                                E f.                                          A.*         - k.                                                                                      ) ^                     G.*       * T.                                                            ( e.                                m.q @             - h.                                          ",
"    $ T.                                            ) h.c                                           M.*         * ,.p.h.i.                                                                          8.~                           ,.*       * T.                                                              y.                            9.M.; 2               * =.                                          ",
"    * i                                           ^                                                 %.;           O @ - : H.                                                                      m.9                             t.*       *                                                             E                                 d.-                   * f.                                          ",
"      . H.                                    E ~                                                 i.7.-                 q % d.e.y.f.                                                            i.5.R                             u.<       * 6.                                                          ,.L.                              c.@     R.L.T.=       * d.                                          ",
"T.    # 4 P.                              E                                                         g.-         > T.U.      < < 6 f.                                                            h.k                           [   u.*       * 4.@._                                                       _                               n.% t   F.    u.#       : f.                                          ",
"        > P.                              3.o.                                                @.o.  f.*         - g.  g.          = m.f.N.                                                                              _         l.*       * u.  o.                                                                                      m.#     m.    u.*       * B.h. .                                      ",
"  Q.e   t i                           _                                                     9 d.    g.*         - Z.    I.n.        * < u L.                                                  k.l.                    h.@.[ ~     n.*       @ h.    R 8.                                                  _                               B.+     M.    i.*       * ..   .                                      ",
"  Q.g     > A.                      o.                                                    3.        n.*         - A.        g.a.        # & m.                                                >.o.                    ,._         g.*       @ i.      _                                                                                 x.&     R.8.    h.*       * s.      ]                                   ",
"    D.*   @ s I.                  [ &.                                                X.9.          D.@         # G.            H.L.        r J.d.                                        ^ =.W                   N               n.*       * F.      k     {                                         E                                 a.o     *.)     K.*       @ a.    E     i.                              ",
"    t.:     @ <.                                                                                  n.D #         - I A.              F.F.      e n.n.                                                              (             B.A *       - U u.            ~                                       *.                              L.# :           p.D @       @ K F.        3.                              ",
"A.A.P.c.    @ M.f.K.H.H.@.K.A.Y.&.M.K.K.K.A.K.K.K.Z.Z.A.Z.<.M.K.K.;.K.A.Z.M._ p.y.H. .l.A.A.6.h.i.H U *         - K b Y.K.K.e.A.Z.Z.l.d.T.      O v.  K.Y.O.A.H.k.Z.l.A.8.Z.M.K.A.A.=.Y.7.K.u.Z.k.6.Z.l.K.    A.6.H.H.P.H.H.H.h.F D *       # K P P.t.M.G.F.>.,.3.M.) l.K.%.H.l.Z.Z.A.A.Z.A.+.P.e.A.X.u.3.A.i.M.,.H.H.H.H.H.K.H.i.  u., e     G.M.G.J.P I @       # Y } P.K.K.K.Y.L M.M.O.K.K.K.,.M.K.H.H.K.A.K.",
"S S B :     * 4 D Y B B Y J J P B M Y T T Y J J J K J J J B Y U T J K J Y K K U M U B B B B B B B Y >             $ C S B J S B B S S S S W.;   * i Y C B B J J Y T K J J J U B B J J J J K U B B Y B K T C B U U B B U U B F F U %           , F S B B B M B C C C B B B B S J J J S B J K M M M J B B J J B B B B B B B B B M M C U @       M V n n K #           & J B B B B B S F D D U B m J K J J J J m m ",
"D S J ,       $ U F S B U U U 5 Y J B B T K J J J 4 U J J J J 7 J S B B K 4 C 4 M U B B B B B C C *                 @ Y U 8 M S S S S S D 8 *     = M B U B S J T 4 5 T J J m T K J J J K 8 S S S S S B 8 J B S B m B j M m M M >               - B B B S D 1 J J B B J K J J J J S S J 8 S B J Y J 5 J J B B B B B B B B B S J J U U :     o S A Z D =               > J S B B B B 7 B J 4 B J J J 8 J U D S Y ",
"3 1 1 ,         1 1 1 1 1 1 1 1 1 1 1 1 , 1 , , , ; ; , , , , , , > , , > ; 1 , 1 1 , , , , , , ,                     = 1 ; , , , , , , , > :       , ; > > , , > ; , , , , , 2 2 , , , > ; 1 1 1 1 , 1 = = 2 2 1 ; , , , , , ;                   = ; 2 1 = 2 2 1 1 1 1 1 1 1 1 , , 3 , 2 1 1 1 1 > , , , , , ; , ; , , 1 = , ; > > >       @ 1 > > 1                   1 , , , , , 1 = = ; , 1 1 , 2 1 1 1 1 2 ",
"                                                                                                                                                                                                                                                                                                                                                                                                                ",
"                                                                                                                                                                                                                                                                                                                                                                                                                ",
"                                                                                                                                                                                                                                                                                                                                                                                                                ",
"= = = 2 2 2 = = ; 2 < < < : < = = < < 2 2 2 2 w w < ; < < 2 2 2 2 < : e                 e < < 2 = = = 2 1 = , 2 ; * * ; ; = < < * < < 2 : : 2 2 < < 2 2 ; ; < ; < ; ; ; ; < 2 : < <                 = < < : : w : : < < = ; 2 < = * 2 , ; = ; ; 2 2 < < < < : 2 2 * ; = ; < : < < < w 2 < ; ; ; < : w w 3                   = 3 ; * * * * * < < < < : < = & 1 = = = > 2 ; - < : : : : < < < w 2 < < 2 2 = ; , 2 ",
"Y.L.D.i.;.B.J.J.F.F.G.F.G.F.I.I.{ H.G.G.G.L.T.t.8.I.n.G.F.F.G.G.G.H.G.L.<             & J.L.G.G.F.Y.;.U.Y.2.O.l.A.F.J.J.J.G.F.G.K.M.H.&.j.w.L.L.G.F.G.G.A.t.A.G.G.G.G.G.G.n.F.G.F.J.$             o U.K.K.K.g.A.A.H.:.K.H.r.L.L.L.G.Y.=.*.P.P.j.Z.G.K.K.K.Y.J.Y.Y.e.A.M.G.J.G.G.G.G.A.A.A.G.G.G.A.A.G.L.g.=               @ Y.A.A.M.A.F.F.F.F.G.G.L.L.L.3.G.K.K.K.K.O.G.G.D.G.J.L.J.K.K.-.L.F.F.F.F.F.F.n.*.G.F.",
"         .(                                                             W.$         2 v.            =.    8.i.                                                                      U.1         3 U.                                                                                                      F.6           = C.                        j.                                                      f.  ",
"      ~                                         o.                        N.*     = U.            W y.                                                                                l.*     < J.                                                                                                          n.&       < U.                          g.                                                c         ",
"~ 9.^ $.                                          ] ]                     m.@     = e.      ]                                                                                         f.*     < l.                            o.                                                                    #.      m.=       < m.                                                                {  .                  ",
"3.                                                _                       n.*     ; t.    ]             ..                                    O.                                      i.<     w l.                        W                                                                           [     n.*       < m.                        /                                       h.o.                  ",
"D.                                                                        F.=     > a.  ! (  .                                                                                        f.<     w l.                          Q                                                                               n.*       < h.                      {                                                               ",
"                                                                          F.*     > t.      o.                                                    E                                   h.<     w l.                  (                                                                                   /   g.*       2 h.                    ]                                               )           #.#.  ",
"                                                  (                       M.=     > %.  o.                                                                                            h.2     ; h.                                                                                                          g.-       < h.                [   9.                                                o.              ",
"                                                                          M.*     = J.                                                                                                l.2     ; l.                                                                                                          l.-       2 l.              E B.                                                              o.    ",
"                                                                          M.*     ; F.                                                                 .                              l.,     2 M.                      _  .                                                                                l.*       ; l.              f.                                                                      ",
"                                              ^ f.                        m.*     ; l.                                                                  [                             m.,     ; i.                    ^                                                                                     l.*       ; Z.          ~                                                                   &.      ",
"                                              ~ 7.                        M.*     - l.                                                                      ^   [   )                 M.;     = h.                                                                                                          l.<       2 k   c _ _ _                                                                             ",
"                                                                          l.*     ; g.                                                                              _ _               l.2     ; m.                  z                                                                                       l.*       2 m.          _                                                                           ",
"                                                                          d.*     ; g.                                                                                                l.*     < m.                  d.                                                                                      Z.:       < M.      _                                                                               ",
"                                              o.                          [ *     ; &.8.                                                                                  /           h.;     : l.          Q &.y.9.                                                                                        Z.:       < m.                                                                                      ",
"                                                ^                         B.=     ; &.                                                                                      _         l.2     < F.        [                                                                                                 A.:       < m.                                                                                      ",
"                                                                          *.@     ; a.    #.                                                                                o.        h.<     < 3.      l k.                                                                            _   [   ~ E   o.    A.*       = l.                                                                                      ",
"                                                        &.                J.$     , d.                                                                                                h.=     ; h.    ..                                                                                                    M.-       = l.                                                                                      ",
"                                                                      { 3.J.@     = d.^                                                                                       &.      h.2     - h.  G.s o.                                                                          8.                      M.-       = k.                                                                                      ",
"                                                                          F.=     = d.   .                                                                                            l.2     * | j.                                                                            ^   y.              g.u.u.Z.1 *       = k.                                                                                      ",
"                                                          _       (       m.=     = i.    #.                                                                                          l.2     :   t.                                                                                        u.p.i.9.g.* @ O :         ; k.                                                                                      ",
"                                                            X.            m.=     = i.                $.                                                                        {     m.<     *   b.N                                                                             T.Y.  P.H.1 1 i # o                 - h.                                                                                      ",
"                                                                    O.    n.=     ; u.          [     `                                                                           E ^ m.,     # m.                                                                        G.A.A.A.7 a 7 1 ; :   ;     t               - k.                                                                                      ",
"                                                                &.  &.    n.*     < u.                                                                                          [     B.,     - M.                                                                      Y.q - u - : *                                 ; h.                                                                                      ",
"                                                                    {     l.*     = i.                  7.  _                                                                         n.,     - A.                                                                    Y.y o t                       M.F.D.D.I.<       - h.                                                                                      ",
"                                                                          %.-     < i.                                                                                                O.,     - M.                                                                  N.; O                 G.L.L.L.Z.        M.*       - Z.                                                                                      ",
"                                                                          L.*     < d.                          {                                                                     F.2     ; M.                                                                M.0.o         J.J.F.M.M.                  F.*       - Z.                                                                                      ",
"                                                                          K.*     * d.                      _                                                                         M.<     - m.                                                                m.@       x.P.                            F.*       - M.                                                                                      ",
"                                                                          F.;     < t.                        #.                                                                      l.<     ; M.                                                                m.@       I.                              F.:       w M.                                                                                      ",
"                                                                          F.;     < t.                                                                                                l.<     ; m.                                                                B.<     T.                                F.*       - M.                                                                                      ",
"                                                                          F.;     * i.                          E                                                                     l.w     ; l.                                                            5.Z.o y   L.                                  m.*       - m.                                                                                      ",
"                                                                          F.;     * d.                            &.                                                                  M.w     * h.                                                            d.*       B.                                  m.*       ; l.                                                                                      ",
"                                                                          t.;     * g.                            &.                                                                  M.w     ; m.                                                            T.@     S.M.                                  M.*       ; h.^                                                                                     ",
"                                                                          h.-     * d.                                                                                                Z.w     ; m.                                                            v.#     r.                                    M.*       ; m.^                                                                                     ",
"                                                                          m.@     = g.                                                                                                l.w     ; m.                                                          I.= h $ h.                                      m.*       ; 3.                                                                                      ",
"                                                                          O.-     = n.d./                                                                                         /   m.:     > L 8.                                                      i.a.+   0.                                      [ a.*       > h.                                                                                      ",
"                                                                    o.    i.-     = B.                                                                                                l.<     > c o.~                                                     V.=     Q.                                    [   J.<       ; A.                                                                                      ",
"                                                                    m.    h.*     * g.                                                                                          ]     l.*     ; n.@.O.                                                    S.@     N.                                        J.*       ; A.    ..                                                                                ",
"                                                                  k       B.@     - g.    E                                                                               [ t.        h.;     - h.        R                                             V.o y r T.                                ] 3.      m.*       ; k.      '                                                                               ",
"                                                                  a.      a.@     # n.    =.~                                                                             u._         h.2     - f.      V.<.~                                         f.h     i f.                                u.R       n.*       - h.    E                                                                                 ",
"                                                          {     E         n.@     - j.    R                                         ]                                       (         l.=     - M.                '                                   D.<   r 7.                                  R         F.*       - h.t._     ^                                                                             ",
"                                                                      t.s.U *     - Y a.                                                                                            7.F *     - B D.                                                x.o     : 2.                                          J.J *       - F d.t.                                                                                  ",
"Z.k.l.l.l.l.l.=.Z.M.o.Z.Z.Z.Z.Z.Z.3.M.Z.A.Z.Z.6.l.k.l.&.p.p.Z.$.M.A.M.l.n V *     - J G Z.Z.Z.h.Z.Z.) l.k.h.l.Z.%.K.A.Z.Z.Z.Z.Z.M.Z.Z.Z.Z.k.l.Z.Z.Z.A.A.A.Z.A.Z.Z.A.%.G.M.M.m.V.V.l.j V <     @ U n K.G.H.Z.X.Z.Z.Z.=.A.l.M.M.A.M.M.9.Z.l.M.A.M.K.M.w :   t x.Z.Z.l.l.Z.Z.Z.Z.l.l.Z.@.A.M.V.o.k.Z.K.Z.A.l.n V @       @ V j ..H.H.H.k.#.A.Z.Z.A.M.Z.M.M.l.Z.Z.A.Z.Z.l.l.k.A.i.Z.Z.Z.A.-.H.-.3.K.M.h.l.Z.Z.M.A.G.",
"A A G D G G A G G G J D G G G G G G G G G H G G j G D G J m S G D Z D Z B %         X G A A G G G G m K H G K G G G D G G G G Z Z Z G G G G G G D A A G G M M H G D V D D Z G G Z Z U 4         1 n Z Z Z Z D G A G G G H H G G G G G Z Z Z F Z A D *     * B Z Z A A G G G G G A G G G G Z S S G G G Z S U $           3 n D G G K K H G G S D Z D F Z A A A D S D G I G P P K K G D D H H K G G G J I G A A H ",
"A A D 4 A G Z I m D G G G G G I 8 A D G H H H H n A 5 4 I a b 3 G n F A &             & Z A G G J , * I I F U , J G 7 A H D G Z Z A A A A A G G 4 A A A A - # A A F 2 D D Z Z Z n U ;             $ U D A A A A D F A A F 4 G G D D D Z A 4 F Z Z F -     * M F D Z Z A A A D G G A G A A 1 F 8 A A D Z F 2             h $ J A A A = J H D z Z A A $ S j A A A % 5 H H G P P H G F Z A A F 8 H G G J 5 I 4 V A "
};
