/* XPM */
static char *_adf628450874afd9dbbc2f0638e2c98UklF0En9eoiTjHK0[] = {
/* columns rows colors chars-per-pixel */
"200 200 67 1 ",
"  c None",
". c #AD714F",
"X c #B47350",
"o c #BA7953",
"O c #B17859",
"+ c #B67C5E",
"@ c #C07F58",
"# c #BB8059",
"$ c #C6824D",
"% c #C58456",
"& c #C5855E",
"* c #C28859",
"= c #CA895B",
"- c #CE8F5C",
"; c #D19151",
": c #D4965D",
"> c #C08161",
", c #CB8A61",
"< c #C98E64",
"1 c #C48869",
"2 c #D08E64",
"3 c #CE9464",
"4 c #D29161",
"5 c #D79864",
"6 c #DB9E66",
"7 c #D49769",
"8 c #DA9D6C",
"9 c #D39B73",
"0 c #DDA368",
"q c #D9A16F",
"w c #DFA770",
"e c #DDA277",
"r c #E2A76B",
"t c #E6AE70",
"y c #E2AC76",
"u c #EAB676",
"i c #EEBB76",
"p c #E6B17A",
"a c #E8B77D",
"s c #EFBE7E",
"d c #EEBF85",
"f c #E5B18D",
"g c #EABA88",
"h c #EBBE8F",
"j c #E9BD9A",
"k c #F2C68A",
"l c #F5CC8E",
"z c #EEC394",
"x c #EBC69C",
"c c #F2CA96",
"v c #F4CE9A",
"b c #F7D39B",
"n c #EECEAB",
"m c #F1C9A0",
"M c #F4CBA5",
"N c #F4D2A7",
"B c #F8D7A5",
"V c #F5D4AD",
"C c #EFCCB6",
"Z c #F1D6B0",
"A c #F3D4B5",
"S c #F8D6B2",
"D c #F6DBB4",
"F c #F2D9BB",
"G c #F6DABA",
"H c #FAE2B9",
"J c #F7DEC0",
/* pixels */
"                            i      G                                                           0utF                                                                          >   ,,          & &@>BcBaJ ",
"                            6    0a,                                                           0uk1                                                                         4o w4a=             6 &,=u7 ",
"                                 4                                                             b<in                                                                        @  %:%&=                  5  ",
"                                 0V                                                            l<p                                                                         @a =dv                       ",
"                                 0V                                                            0*+AAJJ                                                              N      X  cp G                      ",
"                                 0V                                                            @ #+886n                                                              J    A DS,  -                      ",
"                                 0V                                                            6y @@  yD  S                                                          0V  B@sd48                         ",
"                                 0N                                                            5p     Vp c>N                                                         3&cu6&=,                           ",
"                                 y4                                                            tg,  ywDpJ 3c   n                                                       yo t%&                           ",
"                                 @rN                                                          ck2,@o%%@yDm<NVVNS                                                A      %@ =                             ",
"                                  0V                                                          8t&2o   @,-=,,==%:DS                                              -D      o 6                             ",
"J    D                            0N      V                                               Z  H80&&& s6          utVVZZF                                         y8   Jo2y                               ",
"JG  D                              wn    Z                                                 V hF@o  ,,8         p6556q06NN                           G            F   e&  &=J                            ",
"XJccuBz                             Sn  D@                                                 6AA#   @2          c4     w:55gm                          G           +b  @    qy                            ",
"o88866Dg                            %M b,                                                   ry@  =2           4t         @G                          V            -i*@                                  ",
"      87A                            ;uu                                                    w @ t                         <D                          V            s%                                   ",
"       77D                            a                                                     tooo#                          k                         yV           ypq                                   ",
"         +NSSS                      @NaD                                                   c5#y u                        BVuBZ                       b0k        usOwl                                   ",
"          500r4VNVc      J          ,4V                                                   d6,r=b6v                       666-=v                 DNVNNztlv      G2%#y0                                   ",
"             %w5:4-bV   A*           nn                                                  F#dy y3,4N                          @@Jx             hBp=2222,,&Fz   c7>4o                                     ",
"                   67GGV J           An                                                 S>>k@@    6                            &AGSA JGJN    F3r         =@GGG---w@                                     ",
"                    8066r:u J      DN4n                                                k, @k 4                                  ==-6wypptZVND3            565<  poo                                     ",
"                          :N<vm    ttr#A                                              n%% ,k                                     y%8=@ utBr66                w5   A                                     ",
"                            3==SSS<u  #c                                             N@   5k                                     38   5pyBz                   5 a@A                                     ",
"                              273<>t  #g  J                                          @    r8                                          *p s3                   t*o&A   G                                 ",
"                                  @tsoA  V                                         MAo   tM                                            =Va                      #pA vB                                  ",
"                                  &t @SitV                                        xr a   rN                                             &&                      o-=Bt3                                  ",
"                                   s w.VmN                                       B   A   rN                                            J3                      J@ 4r                                    ",
"                                  q%@@7rr0J                                    Zdw   kJ  rN                                           p#@                      &X  8p                                   ",
"            S                    Go   %wywwV                         D        Dqq&   k=  rn                                           c                     DMc  @  6                                   ",
"            yS            V     V%    772<=qD                        wM  VMSVat      ,   rn                                          tN                     rM   &                                      ",
"             6y           <D   V7ey,,,&B   ,@VVAmA                    <VM @22,           rV                                          *n                      <y >&                                      ",
"        JVNd qAZGF         w  d,&      0    35578GnV               DN%&&= 5               <G                                         =Gn                        @3A                                     ",
"      vc6r667su,<@Vn      bsSy>X                42&0mmAAAAA     Bvvrq                      0gG                                        4,V                       6:F                                     ",
"    di54          ,=b       -5=o5s                 =%&,&&&%F   Bl00                         vy                                          w                       %wF                                     ",
"DDNM-6              78SASSSA&  @&i                         F  vw                             G                                          Z                        yF                                     ",
"3344                 *-2,,,2   @                          rDDD4w                             D                                         rS                        yF                                     ",
"                            Bl8@                           ir                                A                                          8x                       tF                                     ",
"                            7u                             w                                NA                                           J                       tuD                                    ",
"                            6V                             %w                               wF                                           G                       r0w                                    ",
"                            0B                            5=k                               tC                                           nF                       d                                     ",
"                            0B                             0k                              M#.A                                         a-A                    t 5oA                                    ",
"                            0B                             0k                              47:=v                                       G 6A                     2r@A                                    ",
"                            0S                             0k                              4   wDDD                             NVV  VApa6A                       @A                                    ",
"                            0V                             5:                              2lak =ppp                            000ZN=-446n                       kG                                    ",
"                             :Z                            l                               2BV8p  %=NVSVV                          58    ,*V  Z            N      #G                                    ",
"                              rS                           l                              gdNw,-= $02r006sN                               -b S             m    S #G                                    ",
"                              wS                          wlk                            l@7        8    rbtF                              *uN             6D  d6 #G  n              D                  ",
"                               V                          Z                               #               7 wF   S                         =0cA           k   cp6yrMfJF              pF                 ",
"                               6S                         Z                               @                  F  De                          -B            X   %&&&&@@@@              rV           V     ",
"                                6S                        Z                             y&                    tk=&                          pG               2&      #ovm            tV            l    ",
"                                6S                        A                           Nsd5                     2                         Z  .G        czFw           %@y0ZN          $A          B wV V ",
"                                0N                        G                           0v<                                        N     stta +1G   VVVZ ,,&= q       <t  0 FF        7zJ         7uD qJ  ",
"                                 #                       wZ                            >                                         D     d&&%%%p6ZVSV-,,7@                 e8VD       @dwN      vv2pt 3&ca",
"                                 u                       A=                                                             V       vqB   yo@    %ry060                   Nw,24=,Bz     uktd     Dw2&,-0   0",
"                                 oJ                      p                           B@                                 ,F    m   7pSj=        7,                     2   o5 &@NAAAAuddkB5NVV=  ,       ",
"                                  <x                    tZy                        k=q                                   -G   zJ  &&&oy                              A<   &2  @&&&&*p==&<#*%@87         ",
"                                   y                    5oA                       yy                                      5tllwp@@% -%o                              ,V       &     2        =          ",
"                                    A                 Zuk0A                      m*#                                        72 %  0   =                               6   &&&%@  2,     w0B&,           ",
"                                    D                 Atv-F                      7, N                                          @  723d                                         trt      <<#             ",
"                                    p                 Ayb3&                   Z w= ty                                        %& 4  43&                                        t@&u      Z&>             ",
"                                   VV          n      Cybw4m                 ZyF#                                            =q ,3 :                                         &   62     M&              ",
"                                   w0          k     V@yk  6N                6rD+                                             &&&                                           =     5Z   t3               ",
"                                  3t5 N       3iG   Gg4AJyZVmA                wB                                              5                                                    7   <                ",
"                                   ta N       3y9G  a,=,<,**@G                 y                                          n  vg                                                    70  7                ",
"                                   -u yV       &<-4M&       5GV               N                                            Z 8ov                                                    4F&v                ",
"                                   ttrM@ls       a@%&=      45avc V          a@x                                           ti ob                                                     @oz                ",
"                                 DGA>4.660XJ   S%@@           557J<VN      H =@M                                           Vu +y                                                     *yy                ",
"                               Vq,22,  55=fgFFF2@                &&&<F   mss&8%m                                           V #n                                                      3J                 ",
"                              D3         y+ %&@                     &&vcc8&rr.%c                                           Bd@n                                                      u@                 ",
"                             v5          =asd@3                      =5i  26 f<5                                       ZSAzr @n                                                     <=7                 ",
"                             5            #77                          *8 .psJ,                                      bn22,=  @n                                                      6V                 ",
"                          NV              @                            4@ww2s    F   M                               a,      @zD                                                     0Z                 ",
"                          tt              @=                           k%<8wd    ,N  #                             N 2       #5V                                                    4aD                 ",
"                                          @                            wgG%&3    &r  t                             r         5h:vV                                                   0A                 ",
"                                A        =&                             cO          wN                          Gp           @30plm                                                  6A                 ",
"                                wVn  npJ >N                             z+          wV                         t1             &k ,p                                                  5F                 ",
"                                 %7S Sj3=@c                             Np=         2Xa                  N    St              ,d                                                     5A     S           ",
"                                  :6ar,-44t                             =@           55s Z               yN  G$               ,k                                                     :4k   B            ",
"                 D                  zz#  o                             7%            klss%                7Sn-                ,c                                                      6k  m0            ",
"                 wF                 ,@# 4&                             @@6-          tttt                ##                   &c                                                      6kuD7             ",
"                  8SD                @8@=u                             @               w5  N   V       bw av                  &N                                                 S    6kk4              ",
"                  tsw                  & 5N                            %                  Ny   S     Vd54 2,-                0spn                                                0Z   6t0               ",
"AA               Drun  VVNn         FBy&  q                                               >G   N   Nmeo                      4,B                                                 tV   8OS               ",
"&AZVAAAdA       Zy>w0NV5555u      vn3ay&                                                   >FJsi  w-=                          t                                                  wD   +D               ",
"88554,>kyD     Vq,   :0    :dbV   -0,y@                               %G                    ojoVC%@                            l                                                   qB  >D               ",
"     7#r5iDVSNN-      5     r0tB      #                              55y                     =5k#                             yt                                                    ,B t&N              ",
"     2&   w2<<70               icaa=%,#                              7N                  F   2t6                              @pG                                                    8O0 wG             ",
"     2h   y                     0D<2@>F                              7Z                   Fa                                   5m                                                   wDOr wG             ",
"      2i  :                      -3   =                              8V                   6Z oo                                 6                                                   wv   uqSVV          ",
"       0t&                      sd< 6#n                             ks=N                   6wo                                  6S                                                  p@  <&rtppV         ",
"       5s9                       :4yapn                             si2b                   z8o                                  0S                                                 b%o>u  -,==ojj       ",
"        pS                        yya0G                            B3t=&GJ                ylo@                                  wS    J                                            0@ =a      #&yFAAAAA ",
"       4tg                        b 2A                             tu @&&>v              GcpXAn                                 0BA  N                                            qoq =a 5       =yywrpZ",
"        7y                        r 2F                             t, %   5cV    AVS  #  Awyo=@V                                w:MMV-                                   G       h-    6         2    pr",
"        wG                          2A                              t      <yJ  y:wp  dksut7  @D                                  -N                                     6F     p&4 %**a              8t",
"        wD                          ,A                           D a&&&,&&&&&&nAa<=JJ#&&&&&7  ,n                                  wN                                      5GA  a&4 a*  l                ",
"        yD                          2A                          dtO&         @z5   yq         &0D                                 wS                                       w7JS6*Jou   oD               ",
"         *Z                         ,#Z                         t&#           :    y7       ==  0Z                                 o                                         0,dk3&km9<itVVV            ",
"         ,f                          =F  A                     NMX                 8             D                               & &                                           dd  yJm6u<445            ",
"         %G                          %#DN=                    Z3>&                               Dn                      Z       @y%                                          Dg -mw*                   ",
"         84N                 D     N @7>oV              D    D2 5sc                              -A                      V       @p@                                          y2 ,&0                    ",
"          0N                 5N    tzx  0sZ             7G  H22 roc                               0b                     V       Z#B                                       H*.t  %m                     ",
"          0N                  &c   tASccusACA            8Dy>   >7B                                urN                   bm     A:&lax                          DA        k837   @A                     ",
"          0N                  &c bp&111,,,&&@ZZSGZ       5,e@   & r                                 ay                   NA    A&82z7qv                         <mG      N       @A                     ",
"          0N                  ,kl6t4        @3773<F    lku7> =                                      *DG                  =A    G   3roh                          #SgNVVaB&  3<2l @A                     ",
"          0VhJ                9,,>>2l             4SDDg&&&&o=                                        4B               V  <rB  v=      $Sz                        6:uca::=      4 @A                     ",
"           4Vq              ZZo     yb             q7qo    @                                          @D           D D    wa D        0GVG                         6      VAAw   @A                     ",
"            7J             c,<o63   tt              3t     o                                           7D      Z V idVt ts7v #>&&&&&@%  7a        NV           N   .S   SD*,&<   oA                     ",
"            %*N           V& %                       2=    @                                            G      tN,7kp#.8=&=v,7      2%>AtttVSV    qc           NN@#*>Jzr4     6 @oN                     ",
"              4A         F&@ y                                                                          &SMpZ  i&&&&*57S   =7        g*@==,:::vBVVwt           =,=ow-<#p        @uy                     ",
"          Z    9A       c*e p42                          t2                                              &&st  g2    &vw           bD         b&&&&uMF       J7 s 5t           &@=                      ",
"         yG 5  <<FJZN G8,&& &                            6k                                               613qww4     3ss          a7         4    %2V     B6@>&s              t@V                      ",
"         yx     =oc4-d23   a                             rs                                                 B ,        azS         0                7&b   N&&   w            ,  >S                      ",
"         yZ      t&&4,&    8                             q0                                              s p, <        k$V       v*                  2ouuu1                     <Z                      ",
"        NuN yHxvv       p#                               Xz                                              t y<         4r=M       8                    @u6@8                     4N                      ",
"         y   511<       #&                               zn                                              mm4&          r<&G                            %                       ,w,m                     ",
" S    Myp#       ==     u 3y                             @N                                              4@=              >                            0v                      &  5i                    ",
" 6m  G*=@&8, ,    ,t    @ 4v                             8                                                %            lwr@                            0v                      =                        ",
"kcA  -0 @@@        4p   o>&7                             b                                                & w          kw&@                            0N                     tN                        ",
"%%G                 t2 5*                               5b                                               o>           tr ,Z                            6v                  k nyV                        ",
"  3M                  ,@                               4:b                                               o            ,6 2n                            6-                  rV3wS                        ",
"   :                  4c                                6b                                              4o               ,n                                                 6cwS                        ",
"                      4B                                6v                                               o+n             oe                                                 0vyS                        ",
"                      <8V                             D 0c                                               k2x             oA                                                 6vyS                        ",
"                     D4iB                             yBt6                                              So@%S             ,Z                                                6vyV                        ",
"                    N%8=r                             8B                                              cr@   8MZ           2mV                                               5vwV                        ",
"                   H4  &z                             8B                                              y#     om            -c                                               7brp                        ",
"                  Nr   2Z                           s 7N                                              to      4             kD                                               uhFA                       ",
"                  6     &D                          yy vDM                                            s                     %D                                             4   8A                       ",
"                         5n                         tr loc                                           G0                     5Z                                             44= 6A                       ",
"                         5Z                         x@0i dF                                        kb@                      5V                                                 8V  D                    ",
"                         3S                         qpypFz                                         c@                       6V                                                 7dmn:                    ",
"                          :D                       Vw#87<SzM                                      D=                        yV                                             Z    =0t                     ",
"                          :M                      b>#    0:5D                                    v%                         *DZ                                           aV    =rr                     ",
"                          :wV    A             pBrw8     vws8A                                 kt3                           tN                                           oS   l@ooSn                   ",
"                            S    A             q=,,      yy80Z                                 ktV                           65                                           3zJ p,&5>oqxx                 ",
"                            D    A      S   VNm>             %A                                %vV                        Z  0M                                     A    Sg#J  =   =%%%SV               ",
"                          *byG   A      yG s427               &A          n                   v%%S                        0A 6n                                     :VV  t8 #Nott      34S SDD          ",
"                          *4wG  F      k #d5                   8          V                  ty  V                         5 5n                                      -mBvdbt&,#t8w       $ar-w          ",
"                        m , 8A yG      s @                      G         V                FfN  tV                           :n                                       :VdM3u 85=@AA        5:DVVSVVZn   ",
"                        t   7#NhwDV  G 8-                       @G       N        Z      VN>&@  tb                          ka:                                        306@t  7v@w8c         66666666VSA",
"                        td    @a0v&@rt#&                         =m      S       S     VM%3@  ===c                          t6                                           6&2v w&8  0                 =rr",
"                        0>    <k:%=q=6                            oJ   NyS       aV  bg%d        :V                       -HwV                                            ka,yo                         ",
"                         A    a6*                                  3dA  tD        #VF4-%6        3p                       t1eG                                          tsu@3@2                         ",
"                         H   B+                                Nn%  s&S tD     Nsc=,=@            @D                        6F                                         c#   *                           ",
"                        rV  d,>                               v8834=vv%srSVx  Vz-%4                Nm                     Z 0A                                         oor-y7                           ",
"                        ZarBN<                               V     ,zg@,>@@@JAX                    7D                    Dq pZ                                         @8 8SH                           ",
"                        Beac<<                               w      6p    q-po                      &A                   V3 :on                                     yD #8 pyy                           ",
"                  n    sB+&c3D                               2       3  r#@g8                       2>Z                  p  o0m                                      wyo*p N                            ",
"                  4Az  No0>&&,tB                                      4  w->q                        0A      A          v@@%XrM                                      h#%  wt                            ",
"                   wV  3>y>   6t                                       45 4y                          A      A       nN 1+    yF                                   sc% %p>VV                            ",
"                    q FXw%                                               wA                           V     yA       hoasiuuiisZ                              n    t#@ =w 0t                            ",
"                    Nx7ps0                                               NZ                           -Z    t9V    Sj%%q00r6666lB      D                      :n  Ny   ,5                               ",
"                    rDts*                                                ,Z                           4wD    a<H>mN:>          665A   gy                       6aG=   o3r                               ",
"                     ew,g                                                *Z                             8V    3<O@=g              #AVM.s                       ppo    #m                                ",
"                    pc=pS                                                pV                             8dG wltkO@hN               ,=@>uad                VhuAD-5oq   #z                                ",
"                  n t0,h8                                                #V                              #dl sqo@yyw                   4,sN    Z         S4rr00   ,   #z                                ",
"                 JV 0d@X                                                 &V                              &p a4=   5b                      $VMByu      cvs-        wuu4@z                                ",
"                byONe,>7                                                kb6                              &d h&     w                       k@@%uZ  SAV-r           k  %cVA                              ",
" J        SMMM  Nd8@@@m                                                 -h                               &>&+                               >q td Z<2t             t  0#&D  NFG                         ",
"m#VNNNtBDV&&=#p S*680@c                                                 6G                                @ &                               1H  kB                 zy*w tAzvm%6                         ",
" y6665yrrr   6@u4y   @c                                                 6G                         k      % pB                              *7drr6                     %uuv54                           ",
"           8  4t   7 &4t                                                0F                         rD    && r                                XoA                       @aw#                             ",
"           -3      5 &7uB                                               6n                          <NG  >r>>                                 pV                       @pH                              ",
"             &8:VVV wD>bbZ                                             N6NV                          54lt>                                     4                       @ad                              ",
"                00rlwSe554                                              &,%l                           -tisc                                   6V                   SV  o                               ",
"                  -iwN>                                               N   asvZ                         0u&w<J                                  rV                   wosu.                               ",
"                   ,2v&                                               yppvbbdyF                        55@  2                                  0V                      <k                               ",
"                    @p                                               Zo&=,=--H9pS                     z,                                       0v                       OD                              ",
"                    op                                             Bm2#      =Apub                    2c                                        ;                       57D                             ",
"                  -@&S                                           B606         3t:-D    V     F       k@                                                                  oh                             ",
"                   @2S                                     nNVVNp3%%           <8peJ   c     yA      ao                                        G                         =A                             ",
"                  n2tV                                    V-s586B                oofNMd+uvZ  tV    4rX                                         7D                      l0 &J                            ",
"                SS>@-V                                   D&     r               4  4:56#0:ubcrMc   5d                                           tN                     y$ ,A                            ",
"              NN&&o 5V                                  N4      yb                 <  =   :55447D  o<J                                                               A  r 48G                           ",
"              5t     #V       Z                        t@       yq                 <            wD o@*F                                          gA                    Vd hwJ                           ",
"                     &c       V                       M2                           s             3dX tA                                          rN                   v=y@@ 3d                          ",
"                     =%       V                       8                            s              -p rA                                          rM                N w,   @ wF                          ",
"                     *8      G                       J2                          tA                k rS                                          4nA           V  c   >   *  2A                         ",
"                      w      S                     ca@                           -S                0  ,                                           4v          n3NiBy    ppV  -A                         ",
"                      :NZZ   V                    Nt8%                           -V               M<                                              5N         Vqq6slvB@&&&@V  =A                         ",
"                       864V  sN                 AA6                              =V               &V                                              r5       Amw@&@@=,o    @at zoB                        ",
"                        w %v  p                z&#                               =n               &N                                                n     s>&&           ,&2,a:b   S      Z             ",
"                        yc   qV             JGJ2                                  y              xgc                                                D    z&=       ,   =4  -,s7,cG wS    Dy             ",
"                        yN  NcN           Nd6588                                  3D             oSt                                                =F  k>      8     2     =ka#XD yG    a              ",
"                      n  3a 4yN      D   By$                                       7J            :ev                                                0>Vk2&                  -4<sw4cyBV   N              ",
"                      %n a@ =&=      tB b-                                          #V         bp4wA                                                vvNr=                     2a5e.y83ZAhG              ",
"               V      2M=>  4        u%@<                                           &JA        ,@ wA                                                hkk0                       == 8p=,>vaN              ",
"               <S  V   &             2                                              p5D      Vy,  wA                                            NNNNB+54=                       @@ %  @cd*SSD    Gmm   l",
"                wV     &                                                          zroprSGD  s:   2rV                                           Aw0066   7                       %% t@&847yyyy  bkr=-NSBk",
"                 5Zpc  &                                                          q>  84=>ld-     rvS                                         k&2                                 -p=    puuZxguw   55:p",
"                  4c  wp                                                           #%%&>>y0t       rgn                                       d5&                              Z    w=    <,,9@>u    -   ",
"                   7NB op                                                       V  @     &05        ,&S                                     Bo                               VV     p          %&&&& &  ",
"                    5=y&N                                                      go@@                 4y5V                                DDpuuM                               6r     =2a     ag4         ",
"                       &V                                             vv      n5<                     wG                               vg5555&H                                     -3pt   N6-          ",
"                       #V                                             37G    C=                       tdD                              b7    :>9J                                     &u   @            ",
"                     Dy&Sn                                            5X,BblB@                        -ay                             Z=        7                                     @  B              ",
"                    D  a-0                                          D  z=00e                            %F                           F&                                               %tt5              ",
"                   v3A                                              apDo...                             =3Z    F                     3                                                 o*               "
};
