/* XPM */
static char *_eee3625b71145d7c932e21d1c5416bbfVJ4Ae0aLzjXqU9u[] = {
/* columns rows colors chars-per-pixel */
"200 200 64 1 ",
"  c None",
". c #22272E",
"X c #212933",
"o c #252D37",
"O c #2C2E31",
"+ c #292F3B",
"@ c #2C333F",
"# c #31363C",
"$ c #2F3543",
"% c #323A46",
"& c #393C42",
"* c #343F4C",
"= c #3A3E48",
"- c #3E3F4F",
"; c #374452",
": c #3B4958",
"> c #46484B",
", c #434453",
"< c #424E55",
"1 c #484958",
"2 c #4E5056",
"3 c #445360",
"4 c #4C5A68",
"5 c #50606B",
"6 c #5C6768",
"7 c #486074",
"8 c #536472",
"9 c #596873",
"0 c #596A79",
"q c #5D707D",
"w c #606F7A",
"e c #677076",
"r c #6B777E",
"t c #627480",
"y c #657886",
"u c #6F7D86",
"i c #77838C",
"p c #7E8188",
"a c #7F888E",
"s c #6D8090",
"d c #728898",
"f c #848E93",
"g c #8D9497",
"h c #80929D",
"j c #959A9C",
"k c #9B9EA0",
"l c #9FA2A3",
"z c #93A4A8",
"x c #9CAAB5",
"c c #A2A6A6",
"v c #A9ABAC",
"b c #ABB4B5",
"n c #B0B1B0",
"m c #B4B5B3",
"M c #B8BAB8",
"N c #BEBDB8",
"B c #B8BDBF",
"V c #C0C1BD",
"C c #C0C4C3",
"Z c #C6C7C3",
"A c #C9CBC7",
"S c #CECFCC",
"D c #D6D8D5",
"F c #E5E8E8",
/* pixels */
"                                                                                                                                                                                                        ",
"                                                                                                                                                                                                        ",
"                                                                                                                                                                                                        ",
"                                                                                                                                                                                                        ",
"                                                                                                                                                                                                        ",
"                                                                                                                                                                                                        ",
"                                                                                                                                                                                                        ",
"                                                                                                                                                                                                        ",
"                                                                                                                                                                                                        ",
"                                                                                                                                                                                                        ",
"                ########O          2=&&&##%%####@+#       #########@++@##@###@#@+++++O           O###@##@####                      =&##%###%$#######+.                    &&##$$#########               ",
"             O#>AZCZCCAAZ&#&=   #%%SSZZZZCCCZCZZZCV#F   OOCCZCCCVCCVVVCCZZZZZCZVVVCCCS#####    ;;SCCCCCZAZAAZ&%=**=-%=====&     ###SAZZAAZZCCCCCCNmCZZ&$    #@@$$@$%%@#$@#ZZZZZZZVCZCCCCC&&+F           ",
"            .AZClklllllllVZZO5 @jZkllllllllllllllllDO  oSAllllllllllllllllllllllkkkklkCVVVZ+  *NNkklllllllllkAZVNNMMNmCZZZZO   XMVBlllllllllllllllllkkSp;  oVVVCCCCZZZZAASkklllllllllllllCAV.           ",
"           +BllllllllllcclllZo$@AlcclllcccccclcclllcS++XMlllllllllllllllllllllllllllllllllkM&++NlllllllllllllllccllcccllllkA%$omlllcllllllccllllllllllkA$&@VlllccccccccllllllllllllclllclllcS=          ",
"          #DlllllllllllclllcVo,+AlccclcccccccccclllcZ+%oVllllllclllllllclllcllllllllllllllkAX%XVlllllllllllllllcllccllllllkZ$-XBllllllllllcccllllllllllA+,oBllllllccclcclllllllcllccclcclllcA%          ",
"          =AllllclcclllllllcVo,+ZlccclcccccccccclllcC+-+Zlllllcccllclllcclllllllllllllllllk9@%XClllclllllllllllllllclllllllZ+-oVllllllllllcccllllllllllZo-oVlllllllcclllllllllllllcclllclllcA#          ",
"          =VlllllllcllllllllNo1+AlccllllllcclllcllllV+-+ZllllccccllllllllllllllllllllllllljBX-oVllllllllllklkklllllllllllllC+-oVllfllllllllllllllllllllZ$-oVlllllllllllllllllkllllllllllllllZ@          ",
"          &VllllllcclllllkkvN+,+AlcllllllllcllccllllV+-+Zllllccclllllllllllllllllllllllllkjo.%oVlllllllllkkballllllllllllllC@-oMllkplllllllllllllllllllC$,XVlllllllllllllkllCalllllllllllllli#          ",
"          &VllllllcclllllkbpV+,oAllllllllllcllccllllVo$@Zlllllllllllllllllllllllllllllllllv#+-oVlllllllccvV>kklllllllllllllC@-oMlllkaplllllllllllllllllC%,XVlllllllllllllllv5Vlllllllllllllli$          ",
"          =tZllllllllllllm#DZ+,o5VlllllllllllllllllcCo*+ZlfcllllllllllllllllllllllllllllllcV+,+VlllllllcC#XckllllllllllllllZ+-oNlllllkfjkllllllllllllllC$-XNklllllllllllllc0mcllllllllllllllC%          ",
"          =qAlllllllllkcn#iBuo1+8ClllllllllllllllllNqo,@ZkkgllllllllllllllllllllllllllllllkVo-@VllllllnCo@ajlllllllllllllllC+-oNllllllkkkclllllllllllllZ@-XNkllllllllkkllCl:jkllllllllllllllZ%          ",
"          =qVkllllkllkkB*ruByo,+5CkllllllllllllllllV9o,$SkkgllklklllllllllllllllllllllkllkkVo-otZkllcM00wwellllllllllllllllC@-oVkllllllj5BklllllllllllkZ+-owSklllllllkkllb@umkklllllllllllkkC%          ",
"          $tulNBBCeNVVN;;4mAuo1+88mlkkllvMMllllllllV8o,49VkgjjkjkklllllllkllllklllllljMN<CVeo-ot9MMMM9q99gukkkllkklllllllllC$-XwMkklkkkkf>nnnNlllkllllm4+,XtwvclkklllkVCB8otwMMlllllllllkkkCy%          ",
"          %tuma9qq3tww08bvC0y+11%09ZZZZA498CZZCCZZV08+1@43MZZZ=AZZZAZZZZAZZZuZZZZZCCCC89599tX,Xwq0wqq005MZZZZZZZZZAZZZZZZZV;o-o9NCCZZZZAZV$uqwCjZZCNVN50,,oq000ZZZCCVM8009oq0w0CZZCZZZZZNmvqt%          ",
"           7q004qq4wqqq00000y+11%0000099;t0898889900o,-@ww8890089880000000000099999000000900o,o@qq000005qw00000qqqqqqwwqw0y3o-o8988009800S4y0w80990000q0+,+00tw000000000q9+0000900900000000qq#          ",
"           3w903w+8qto+80009+1111#890000@++99988000X,,-*++89999900000000009900000990000oooo+,,-=+@@@oow00w0wwwwwwwwwqwwwwwoo,,-o99900000008=wwo00000000+,,-o+tq000000000qoo0000000000000www#+@          ",
"            XXX++@XooXXooooooXoooooooo++oXXoooo+oXo&-1Xooooo++@@@++@+oo+ooo+oo+++++@ooXo---,,,$,-=,>oooooooooooo+oo+oooooXo,,-,+XXXooo+++++....ooo+@+++@-,,1+oooXXo+ooooX..O+++++o+++o+++oo;:           ",
"            oZVVCVVCCVCCZZCCCNZZZCZVVVCVVVCCCVVZ#,-,$X+AZVVVVVVVVNVVZVVVVVVVVVVVVV%1,-,$+++,1X-+ooo++oo+oo+++-@oo,-,,,-,,,-,,o++ooo+++ZZVVZZZZZZZZZZCVZMXoo++*11=@oAZVVVCVCCZZZCCVCCZCCCZZZ#2           ",
"           $DkllllllllllllllllllllllllllllklllllSo1,oAMklllllllllllllllllllllllllkC+$,-oZZC..bNNVVVVVVVVVVVCZ@@**%%%$@+++---+NVVVVVZZZkllllllllllklllllkCZZZAO,1+AvllllllllllllllllllllllkcZV=          ",
"          &ClllllllllllllllllllllllllllllllllllcVX1,oVlllcccllllllllllcclllllllllllCoX#NcccmNaklllcccllclllllZCVVVNVVVVVCX,oVllllcccllllllllllcllllllllllllllVX,+ClllllcccccllcccllllllcllccV=          ",
"         &NklllllllllllclllcllllllllllllllllllcclZX1+VllllcclllclllclccccllllllllllCoXMkllll,MkklllcllllllllllllllllllllkN.XVllllllclllllllllllllllllllllllllVooVllllllcccccllccclcllllcclccV=          ",
"         @VlcllccllcllllllllllllllllllllllllllcclCX,+VllllccllccllllllcccllllllllllV+oNlllllC8kklllcllllllllllllllllllllkl.oCllllllclllllllllllllllllllllllllVooVllllllcclcclllcccccllllcllclC#         ",
"         #VllllllllllllllllllllllllllllllllllllllZo-+VllllcclllllllllllllllllllllllV+oNklllllZflllllllllllllllllllllllllklXoCllllllllllllllllllllllllllllllllMXoVlllcllcllclllllllcllllllllllC#         ",
"         $NllllclllllllllllllllllllllllllllllllllZo,+VlllllllllllllllllllllllllllllB+oNkllllllllllllllllllllllllllllllllkkooZllllllllllllllllllllllllllllllclMo+VllcclclllclllllllllllllllllcZ#         ",
"         %MllllcllllllllllllllllllllllllllllllllkZ+-+VllllcclllllllllllllllllllllllVooNklllllllllllllllllllllllllllllllllVo+ZlllllcclllllllllllllllllllllklnpXo+VlccllllllcllllllllllllllllllZ#         ",
"         %jgillcllllllllllllllllllllllllllllllllkC@%ZclllllclllllllllllllllllllllllC+XNklllllllllllllllllllllllllllllllllVo+ZlllllcccllcllllllllllllllllkV345Xo+ClcccllllllllllllllclllclllllZ#         ",
"         @clcllglgllllllllllllllllllllllllllllllkC@+ZllllllllllllllllllllllllllllllCoXMklllllllllllllllllllllllllllllllllVX+ZllllllclllllllllllllllllllkjyVBMoooZlcclllllllllllllllcllllcllllC#         ",
"         @vlllllllllllllllllllllllllllllllllllllkC++ZllllllllllllllllllllllllllllllC+onklllllllllllllllllllllllllllllllllVo+CllllllclllllllllllllllllllaikkkkMo+Zllllllllllllllllllclllccccclh&         ",
"         +.cllllllllllllllllllllllllllllllllllllkV++ZllclllclllllllllllllllllllllllCo+VkllllllllllllllllllllllllllllllllS9ooCllllllllllllllllllllllllkumckklkNo@CllllllllllllllccllclllccccclV#         ",
"         +ojlllclllllllllllllllllllllllllllllllllCo+ZllllllclllllllllllllllllllllllCo@VklllllllllllllllllllllllllllllllM0wooVlllllllllllllllllllllljllllllklkV@+Zllllllllllllllccllclllccllcln#         ",
"         +NllllllllllllllllllllllllllllllllllllllCooZkllllllllllllllllllllllllllclcBooVkklklkkkllkkkllllllllllllllkllklM0w++VlllllllllllllllllllllllllllllkkkV+XZllllllllllglllllllllllccllccN$         ",
"         +BllllllllllllllllllllllllllllllllllllkVoXotVlllllllllllllllllllllllllcclV$oo8CZV+VVNVVVNNMlllllllllllllNkkkBMtqw++VlllllllllllllllllllllllllllllkkkVooZlllllllllgllllllllclllccllccV#         ",
"         @yllllllllclllllllllllllllllllllllllllkZXX+tZllllllllllllllllllllllllllllV@oo8888.w000w0009VNNNNNNNNNNVM8cNmtttwq+3wAlllllcllllllllllllllllllllllllkMo1+VllllllllgllllclllllllclllccV#         ",
"         @VkllllcllcllllllllllllllllllllllllllllAX:+tAkllllllllllllllllllaklakllllV@1X8988.00000000w000000000000000wwwqy*r+-t4lllllVVVVCCkllllllllllllllluklC5o1oCllllllllflllllllllllllllllcV#         ",
"         +CklllllllcllllllllllllllllllllllllllllaX,+qrcllkkkkkkkkkklkkkklkjkglkkkcu+11o888X900000090099009900900000000q$+.$$y9ZCVVV000000BBMMMMMMNBVVVVZCybA50+1oCllllllkklllllllllllllllllllV#         ",
"         @VllllcllllllllllllllllllllllllllllllllpX,+t9wVMmmMMMMVVNNNNNNMwVNNV4MNZ00o11*o+++@++o++@@+@+@@$$$$$@@@$@++++@+,--o+t00000000000wwwwqqqq0000000009000+1oCllllllklallllllllllllllllllZ#         ",
"         +VklllcclllllllllllllllllllllllllflllllvX,,oq00000000000000090009999899998+oooo+o+++ooo%oMMMMNNNMVVNNMNVO+oooo;---,$+999999999O800000009999999999998o,1oVllllllcakllllllllllllllllllA#         ",
"         +AklllcclllllllllllllllllllllllglkkllllnX,,$+w00ww00000000wqw000000009909OMZZZZCVVCCZ#%>SjkkkkklklllllllZVVVVCV+$,-,*o+oooooooo+oo++oo@+++@+++@@oo@@-11o0Clllllglllllllllllllllllllc%#         ",
"          %lmlllllllllllllllkkklllllllklkkkkllllno1-1-+++o+++++++++++oo+oXXooXXXXoClllllllccllv;CkllllllllllllllllllllllZo,-,*ooooo+++oooo+@-------,,,,,-,*-,,,,oqwCCCC84clllklllkkklkkllkkMy#          ",
"          $9AkllllllllllllkNNNNVNNVCckkkkkjklllNqo1%+++++++++++++o+++oo1-,%,1oBVCZjllllllcccclk:ZllllllllllllllllllllllllCo,1XBVCVVVVVVVVVV@@@@@++@@++++++++@+o,ow888898BBNBVVVVNNNNNNM0NNV0t=          ",
"          $wwMMCllllllllkla0000w9qqq4MVjknwkkkVt0o*.AZVVVNNVNVVVNNNNNNN#,--1+ZjklllllllcccccllicAlllllllllllllllllllcllllCX1oBkkllllllkkkkkZVVVVVVZVVVVVVVVZZZZooo8858o9990w09000900000Mwwwtq&          ",
"          $w0800VZCZZZZZVV;ww0ww3qww005VAVwZZVqq0+oCkllllllllllllkkllkjZo,,,@VklllclllcccllllkiccllllllccllcllllllllcllllCooVklllllllllllllllkllllklkklllkkklkkZZA+@$@+900wwwq0q0000000q0wqt#+          ",
"          @0000000000099904wqwwww00*00000000000q+-+Cllllllllllllllllllkl+,,,+VkllllllllllllllijllllllllccllllllllllllllllCooZlllllllllllllllllllllllllllllllllllllZZZAAoooo++ooooo+@8900090w%           ",
"           300990000000000.qqqwww+8%q0000000000X-,+Vlccccllcllllllllllll+,-++CllllcllllclllllikllllllllcclcllllllflllllllVooZlllllllllllllllcccclllllllllllllllllllllllNNMM@1---1Xo+@@$$$$$%0           ",
"            @oooo++@@+++@ooo++++oXO++++@@@@@+o+--=oCllccclccclllllllllllS+-@NllclllclllcllllilllllcclllccccllllllkgllllllVo+ZlllllcccllllllccccclllclllllllllllllllllllllkkA+-,,oAMnvvCZZCMV3           ",
"            @AZVVNNZVo,-,oo#SAZZZCCZZZZZZVCZZ+%--+ZlllccclcccllcllllllllS+,@ZllllllccllccllllllllllccllccccccllllllllllllV$+CllllllccccccllcccccclcclllllllllllllllllllllllZo+,%VkllllllllllC=          ",
"           oSllllllllD+,1+DllllllllclllllllllB+%1oZlllccclcclllllllllllk0X,@ZllllllclllcclllhlllllccllllcccclllllllllllllZ++@VkllllccccclllllllcclcclllllllllllllllllllllllC+@1$ZllcllllllllZ=          ",
"          =ZllllccllllMo+MjlllllllcclllclllcllN@,oCklllcclccllllllllllllN+-@ZlllllcclllccllfllllllllllllclcclllllllllllllZ+,+VklllllcccclllllllcllcccllcllllllllllllllllllllN@,$ZlcclllllllcZ%          ",
"          -ZllllllclllVo@CkllllclllclllllllcllV+,oCllllcclccllllllllllccV+-oZlllllcclllllllllllllllllllllllllllllllllllclC+,+VkkllllccccllllllccllcccllllllllllllllcllllllccN@o$ZlcccllllllccV#         ",
"          ,ZllllllllllV+@VllllllllllllllllllllVo,oZllllcclcclllllllllllcN@-oZlcllllcllllllllllllcllllllllllllllllllllllllZ+,+CjklllllccclllllllclllllllllllllllllllclllllllcV@$@CllccllccllccZ#         ",
"          =NllllllllllV++VllllllllllllllllllllVo,oVllllcllllllllllllllllN+,oClcclllllllllllllllllllllllllllllllllllllllllC+-.wclklllllccllllllllllllllllllllllllllllllllllllVo*+CllccllccccccV#         ",
"          *glllllllllcV+@Vlllllllllllllllllllluo-oVlllllllllllllllllllllN+-+ClccllllllllllllllllllllllllllllllllllcclllclZ+-Xw9ZZlllllccllllllllllllllllllllllllllllllllllllVo-+VllccllccccccV#         ",
"          *llllcclcclcV++Vllllllllllllllllllllgo-oVllllclllllllcllllllllVo-oClllllllllllllllllllllllllllllllllllllcclllllZo-.wtwyMlllllcllllllllllllllllllllllllllllllllllllZ+,+Vllclllcllcccm#         ",
"          *flllcccccclM++Vllllllllllcllllllllkao,+VllllllllclllcllllllllCo+oCklllllllllllllllllllllllllllllllllllllclllllZo1X+fkbrkllllccllllllllllllllllllllllcllllllllllccZ+,+VllllllllllccN$         ",
"          %mllllclccccMo@VllllllcllvMMMllllllkuo,+VlllllllcclllllllllllV0X,oNkklllllllllllllllllllllllllllllllllllllllllkZX,oNAkllllllllllllllllllllllllllllllllllllllllclccZo,+NllllllllllllM$         ",
"          %VlllllllcclCo+Vlllllllllut95SAkkklZuo,orZllllllcclllllllllkV08X,+5Cllllllllllllllllllllllllllllllllllllllllllvwo,oCkkllllllllllllllllllllllllllllllllllllllllllccZo,@NllllllllllllN$         ",
"          %ZllllllllllCo+Xkllllllllkfui+@NNNNwto,owwNNNVVNVVVNNVVVVVVB005X-o99AklllllllllllllcvlkllllllllllcMMMNglllllljN0X1oCkllllllllllllllllllllllllllllllllllllllllllllM8o,@Vllllllllllln9$         ",
"          %gkkllllllllVo+oclllllllllmai;twwwqqto1oq0000w000000wqqqqqqq00+1-o809ZZCCCCCCCCCVBlv3cvCZZZZCCCCCC900tclccljim0qX1+VkllllllllllllllllllllllllllllccllllllllllllllM8o,+Vlllllllllllm0@         ",
"          *elcllllllkjdo+oVlllllllkkZgi;ytqwwq++,%Xw00000000000wqq00000%o,,,@0990000000009000988000qqqq000090000CVVCfBCqq0,1oVklllllllllllllllllmmMMMmBllllclllllllllllllllM8o,+Vlllllllllllmw+         ",
"          *eSwllllllkZy#-o0VNMMMMNNM98w;tt@@@++++oX#$$$%$$%%@o+@+o+@@+++-,,,,o899999009999990999000wqw00q000o090000wyw00to,,o0mllkklllllllllllllA08000ZllllllllllkllllllNmMs8o,+5CklllllllkZk5+         ",
"          %w8kllkkklkAt+-+90000q00qw08X+OOmvvmVZVCVVVVVVVNVZ++*-,-=--------,--ooooo@++@@@o+@++@$@O++ooo+oXooo++09999o900@-,1X0wVNNVwVVNNMMNNNVVVeu@9905VVVVVVVVVVjC4VVVVw0008o,$99VVNNNVVVV9w0o         ",
"          %8q8BMVC0VNk0@,+0000qqqqqw9oZZSAklllllllllkkkllkklVV+,,-,o+ooooooooXo++++SAZZZZCCCCVCVo,,,,-@---,,,,,+++++X++@%,-1o09w0000000000000000q0@55S50000ww0w00qq0qqqqqq0q@o,@0889999999900y#         ",
"           :q0tq00ytyc8@11++++o++oo+oVkllllllllllllllllllllllkD$--++ZZZZZZAZZZZZZZVllkllllllllllSX1,,,-Xo1,1,,,,--,,,,,------o000000099909890000wtoooow00000099000000000900o+1,1o888888888895:          ",
"           ,qqo000+00X+X,,,,,,,-----oMlllllllllcllllllllllllllM@,+MjkllllllcclllllllllllllccllllcCo,,,,oo+@@@+++++++++o@+o,,,-oo+ooo++o@@++++++++o-,,=o+++o++oo++++++o++++oo,111,+oo++++++oo#           ",
"            oo+@+ooX.XXXXXooXoo,,,,$omlllllccccclllcllllllllllV.o+NklllllllcllllllllllllllcclllllZo,,,+VnMNNVZZZnVVZZNNZZZooo+.Xooooo*%ooooooo%---,,,------,+,----,,--==&oXXXo+oo@+ooooooooo+           ",
"            oo+CCVCVVVCCCVVVVVC@,,,+ZkllllcccccclllclllcclllllZo,oNklllllllclllllllllllllllllllllZo,,+SllkllllkklllkkkkkkkCCCVZZZVVZVVVZZVVNNVO+-,----,,-,-,--,,,,,,,,.XXZZZZZZZZCZZAAAAZZAA#           ",
"           oACVllllllllllllllllS+-%+ZkllllllllllllllllllllllllZo,oMklllllllllllllllllllllllllllllCX,+ZlllllclllllllllllllllllllllllllllllkkkkkZ@-,,o+oX$ooooooo++,,,,@ZMVlllllllllllllllllllS>          ",
"          #VllllllllllllllllllllAo-@ZllllllllllllllllllcllllllCo,ovlllllllllllllllllllllllllllllliX,+Nkllllccllllllllllllllcllllllllllllllllllkm+-+VnNvVNV+@ZCZZZo,,+ZkkllllllcclllllllllllcvV&         ",
"          #NllllllcclllllllllllcVo=+ZlllllllllllllllllllllllllCo,oVklllllllllllllllllllllllllllllZX,+VkllllccllclllclllclllllllllllllllllllllllVoXNkcllllNocllllkC.,+CklllccllccclcclllllllccN#         ",
"          #NllllllcclllllllllllcVo=+ZlllllllllllllllllllllllllCo,oVklllllllllllllllllllllllllllllZX,+VkllllccllccllllllccllllllllllllllllllllllVooVkllllkr@vllllkZo,+VkllllccccccccclllllllccN#         ",
"          #MlllllllllllllllllllcVX%+ClllllllllllllllllllllllclZo,XAklllllllllllllllllllllllclllllj+,+VkllllllllllllllllllllllllllllllllllllllllVooVkllllkuclllllkVX,+VklllllllccclcclllllllccN@         ",
"          @ulllllllllllllllcllccVo-$jlllllllllllllllllllllllccZ@,otjllllllllllllllllllllllccllllkZ+,+VkllllllllllllllllllllllllllllllllllllllllVooVlllllllllllllldX,+VlllllclllcclcllllllllccV@         ",
"          +gllllllllllllllllllccVo-=llllllllllllllllllllllllllC@,oNklllllllllllllllllllcclcllllljS+%@VkllllllllllllllllllllllllllllllllllllllllVooCllllllllllllgpBX1+VlllllcclccclcllllllllllZ+         ",
"          +vlllllllllllllllllllcV++MklllllllllllllllllllllllllC@,oCklllllllllllllllllllcllllllllk;o,+AlllllllllllllllllllllllllllllllllllllllllVooCllllllllllljlgso2+VllllllcllccllllllllllllZ@         ",
"          @mlllcccccllllllllllllVoXNklllllllllccllllllllllllllV@+oVklllllllllllllllllllllllllllllNX1oVllllllllllllllllllllllllllllllllllllllllkVoohkllllllllllllkvo2+VlllllllllllllllllclllllV@         ",
"          @mlllcccccllllllllllllVooNllllllllllcclllllllllllllkN$,oVklllllllllllllllllllllllllllllNo1oVllllllalkllllllllllllllllllllllllllllllllV+oNklllllllllllllVo2+Vlllllllllclllllllclllclm+         ",
"          @mlllccccccllllllllllcNooNlllllllllllllllllllllllllkV=,o3jlllllllllllllllllllllllllllllNo1oVlllllllljlllllllllllllllllllllllllllllllV++oVkllllllllllllkVo2+Vlllllllllllllllllllllclj@         ",
"          @qllcccccccllclllllllV@+oNllllllllllllllllllllgllccMo,1oVklllllllllllllllllllllllllllllV.1+VklllllllllllllllllllllllllllllllllllllllC++oVklllllllllllllVo1oNlllllllllllllllllllllclZ$         ",
"          #mlllcclcccllllllllllVo+oVlllllllllllllllllllkkllccMo,,oZklllllllllkllllllllllllllllllltX1+MclllllllllllllllllllllllllllllllllllllllVo@XCkcllllllllllllVo1oNllllllllllllllllllllkllV@         ",
"          #VllllllcccllllllllllVo+oVklllllllllllllllllV0cllccVo,,oCkllllllllkiCllllllllllllllllllCX1+#CkllllllllllllllllllllllllllllllllllllllVo@XrVllllllllllllkZX1oNkllllnlllllllllllllljllV$         ",
"          #NlllllllclllllllllllVo,oVkllllllllllllllllm3klllllVo,,XiVllllllllll<vcllllllllllllllllZo1,oMcllllllllllllllllllllllllllllllllllllllVo$XtVllllllllllllkwX1oNlllll0glllllllllllllaljV@         ",
"          +ullllllllllllllllllkMo,oiklllllllllllllllM3qklllllMo1,XuVllllllllllgqBllllllllllllllllZX,,o9MllllllllllllllllllllllllllllllllllfllkV+$otVllllllllllllkiX1oNkllljhllllllllllllllkngi@         ",
"          +yvvvcllkkllkllklllkmq+1oyvkkllkkllllcllkB$y8kllllkMo11Xqnklllllllllky9BlllllllllllllklVX,,oqMkkllllllkkkklkklcllllllllllllllllkkklVqX$XtZkkllllllllllliX1otvccA5glllllkklllllllknaa@         ",
"          #ww0wmNNNNNNNVVVNNNN00+,X+5ZVkkkkklllllkZ4wygklllkn0X11X99vklllklllkvq0=MclllllklllklmV9o,,o9ABkllllllMNNNNNNNMVMMMMNVlllllllllkCCZ00o$X9vkkkkllllllllVuX1o98ZC.uAlllVVlkjkkkllkkNi+@         ",
"          #B99900000000000000000o--+000VVVViVVVVNV490qjkkklljtX11X909VNN5Ckkllkv55oMlllllNvcMmN33qX--o085MNNNNNVwwqwqwwMMMwttqqqVNVVVVNNVVttq09o$X9ZM9wcklllllllu8.1X9q05.iumMMurvlkMMfNVVVet@          ",
"           %0990wqqqqqqqqqqw00q$,-,@q00qqqqyqqqqqt899ZZZVCCCptX1,oo000qw88BVVVVZ00@0VVVVV85CA0qqqqo,-o:9000000wwwwwwwwww00stqqqqqqqq00000qqq0q$1%o;0q05NVVVVVCCA98.1+owq8X9qw0qqqw00wwqqqqqqt%          ",
"            ++++++++++++++@@+oo1,-,-+000000%q00qq0880q0000000wX,,1@00000qq00000000@88889908890q04+,,,,X9q0000000000000wwyyiqqqqq000qq000000090@111$0000000000000:8.,,@@08X40000qw000qwq0qqqqq%          ",
"            o++@+++++++++++@@++++o,-1+90@@@4000000XX000000009+,,,,;+q000qq0ww00000oo999900o00q++o1,,,-,o++++ooo@o+++++++*%$$*+@@++++ooo+oo++++*111*o0000099099904o-,,,=oooo000000000qw+00000;           ",
"           @ZCCCVVCVVVVVVVZNVVVVVZ+ooo+++@=#ooo@++oooXooXXooX=-----,oooooooooXoooooo+o@+ooo+o+===--,--,,--%,=-=,--=-%,,,-,,,-,=------==--@--$,XXXooOoo++ooo+ooo+X---,-,,$-#O+++@X+ooooXooo+@;           ",
"          =BlkllllllllllllllllllkkVZZZZVVVX$,,,@%oooooooooooooooooo11,-1121-,,+ooooooo%,,--,,1oooXXoooo++Xo+oXooooXo++o++oo+ooo,-----Xoo++++@+CVNNVVVVVVVVCC+oo,,---+oo++@XNVNMNnAVVVVVNNVZZ=           ",
"         #CllllllllllllllllllllllllllllllkAo,,,@AZZZZZZZVZZVZZZZZAS+@$$$@+o++oCZZZZZAZZo-,,,1OCVCZZCCZCCCCCVCVVVVZZZZZZZZZZZAAA&----+ZZVCZZZZclllllllllllllkZCn$,,,$CVVZZX+llllllllllllllkkcD*          ",
"         &VllllclllllllcccllllllllllllllllV+,,omkllccllllllllllclllVVVVVVVVVZVklllllllkB$,,,$AlllllllllllllclllcccccclllllllcclC$-=XNkllllllllllllccllcclllllcM+,,oNllllcjkllllclllllllllllcc;          ",
"         &CllllllllllllccccclllclllcllllllV+=@XMklllllllllllllcllllllllllllllllllllllkklVo-$ClllllllllllllllllllllllllllllllllkAo--XNklllllllllllllccllclllllllVo=oNllllvalllllclllllllllllclA=         ",
"         =CllllllllllllllllllllcclllllllllCo,ooMklllllllllllllcllllllllllllllllllllllkllZo-@AllllllllllllllllllllllllllllllllllkAo-oVklllllllllllllccllclllllllV+-oNllllvgllllccllllllllllcccZ=         ",
"         #CkllllllllllllllllllllllllllllllZ+,ooNkkllllllllllllllllllllllllllllllllllllllZX-@AllllllllllllllllllllllllllllllllllkZX,oVklllllllllllllllllllllllllV+-oVllllmflllllllllllllllllclZ=         ",
"         $VkllllllllllllllllllllllllllllllZ+-,oVklllllllllllllllllllllllllllllllllllllllZo-$AlllllllllllllllllllllllllllllllllllMX,+VllllllllllllllllllllllllllV+-+VllllnfllllllllllllllcllllA%         ",
"         &NkllllllllllllllllllllllllllllllZ+--.VjklllllllllllllllllllllllllllllllllllllcZo-$Zkllllllllllllllllllllllllllllllllll6o,+VllllllllllllllllllllllllllV+-oVllllkklllllllllllllllllllf%         ",
"         #VklllllkllllllllllllllllllllllllZ+,@VklllllllllllllllllllllllllllllllllllllllcZo-@3lllllllllllllllllllllllllllllllllllMX-oCllllllllllllllllllllllllllV+-oNlllllfllllllllllllllllllcj%         ",
"         +NkllllllllllllllllllllllllllllllZ+-oAklllllllllllllllllllllllllllllllllllllllcZX,#nlllllllllllllllllllllllllllllllllllNX-oVllllllllllllllllllllllllllVo-+MlllllllllllllllllllllllllV$         ",
"         @VklllllkklllllllllllllllllllllllZ+,oCkllllllllllllllllllllllllllllllllllllllccZX,$VlllllllllllllllllllllllllllllllllllNo-+VllllllclllllllllllllllllllVo-+MlllllllllllllllllllllllllZ@         ",
"         @VklllllkalllllllllllllllllllllllZ+-oCklllllllllllllllllllllllllllllllllllllllcA+-oCllllllllllllllllllllllllllllllllllcVo-XVllllllllllllllllllllllllllV@-+NkllllllllllllllllllllllllZ+         ",
"         @VkllllllkjklllllllllllllllllllllZ+-+VklllllllllllllllllllllllllllllllllllllllcZ+-+VllllllllllllllllllllllllllllllllllcV@-oClllllllllllllllllllllllllkB+-oNllllllllllllllllllllllllV4o         ",
"         +ullllllllgllllllllllllllllllllllZo-+CkllllllllllllllllllllllllllllllllllllllllZX-+VlllllllllllllllllllllllllllllllllccVX*+Zllllllllllllllllllllllllkkm+-oVllllllllllllllllllllllllZ8X         ",
"         +tVlllllllkuvllllllllccllllllllllVo-+nkllllllllllllllllllllllllllllllllllllllllZX-+VlllllllllllllllllllllllllllllllllllVX%+ZlllllllllllllllllllllllllgM+-oCklllllllllllllllllllllllZ8o         ",
"         +tVkllllllla3vlllllclccllllllllllCo,+VklllllklllkalllllllllllllllllllllllllllllZo,+VllllllllllllllllllllllllllllllllllcVo,+ZlllllllllllllllllllllllllkV+-oCklllllllllllllllllklkklBV%o         ",
"         @tVllllllllkV<nlllccccclllllllllkZ+,+VklflllfclikklllllcmalllllcllllllllllllllC+X-+ZlllllllllllllllllllllllllllllllllllCo1oZklllllcllllllllllllllllllkZo,oCllllllllllllllllc=VVVVBe9<X         ",
"         @tVlllllllllZ:vllllccccclcclllllkZ+,+CjkllllcallklllkklC5lllllccllllllllllllllZoX,oZlllllllllllllllllllllllllllllllllllCo1+tjlllllclllllllllllllllllll3o-oCllllllllllllllllkqtw0900w4.         ",
"         o0SllllllllkZ<cllllllcccccclllllkC+,oVjlllluijllllllkkm9flllllclllllllllllllllZ+-,oVlllllllllllllllllllllllllglllllllllC+-+yZlllllcllllllllllllllllllC4o-X8MlllllllllllllllkZC0q000t++         ",
"          :rvkllllllk5kkkllllllclccccllllVto,X+MjkkalllllllllcB#illllllcllllllllllllllkA+-,oCklllllllllllllllllllllllkjllllllllNt.-oyZllllllllllllllllllllllllZ0o-X5Cllllllllllllllllkkk4.ooooO         ",
"          ,eZMMNVVCC;wCCCkllllllllccllnMNwq+11+MjkkllllllllkBm3sillllllllllclllllllllln;X,,X9BlllllllllllllllllllllllmelllllllkVtX,oyZlllllllllllllllllllllllkC$X,X4ClllllllllllllllllkkfCA+oo          ",
"          <0qwwqq000$wwuukklcMMNVVVVCZ0000q+,,oMjkkklllllkkMuq8qjllllllllllllllllllllkA7o,,X8VlllllllklllllllllllkkklVikkjklkkntqX,otmklllllllllllllllllllllljC@X-X4CllllllllllllllllllllkkxC@          ",
"          =tqqqqq00w$w0yrVVVV00qqq000900q0++,,X9CjkkkkklMMm8t@yikllllllllllllllllkkVVVy8X-,X09MNNMBBBBklllllllcllVCZC4VVVV5MMMmqqX,+-0nlllkkMMkllllllllllllllnto---o9Bkllllllllllllllllllkkva#          ",
"           =wwww09X+@wwyw00009909oo9888oXX=1,,X0wNNVVNVV0009O89VNNNNNNNVNNVVVNVVVVVetMq0X--X8890000q00VVNNVVNVNVNwqqw0qqw00q000t@X,,o88VNVN4qqMMMNVVNNVVVVVZV9qX--,o08MNNNVVMNVVVMMNNNVVNNMAs%          ",
"           *++%@++X-o++%w0000+++@++++++==,,,,,o9000000000008+89wwqqqqqqqq0ww0000000w0wq0X--,o900000000000900000wwwwqw0w0q0w0000q@-,,+8899009qq0wwwwwww0ww0qqq0qo--,+000qqqqqqqqtqqqqqqqqqqqqy&          ",
"           %o++@@@@@%$@++++oo@++@+++@@+@@$@$$,-$90000099880$+o8000000000000098888888@+oo-----o00000+@8888888090000ww00000099000+,,,,-o988888oX000900w000000000o+,-,,o000000qqqqqqqqqqq0000qq3           ",
"           $ZVVVVVVVVVVVVVVVVCCCCCCCCCCCVVVZZo=,+oo+++o+o++111+ooooo+ooo++++@+ooooo+,,-%----,,+++++@@ooooooo++o+++++@++@+++++++,,,,,,,+oooo++oooooo+++++++++++,,,,,,-+o++@+++++++@++++$+++o@            ",
"          &DkkkllllllllcllllllllllllllclllllkAO,---XoooooooooooOooooooX,,-,,@ooooooooXooXoooXXXoXoX+-=@ooooo++$-----%==ooXXoooooXXo+oooOooo@=$--@=ooo+oooooooooooo,,,,,,====-=----=--,,,$-=#            ",
"         #DlkkllllllllllllllllllllllllllllllkkB+---XAZZCCCZZZZZAAZZZZZ@$,,,$@AZVZVZZZA+NVVVZZZZZVVC#$-$SSAAZZC#-,,-,$++VZZZZZZCVVVCZZZZZCVZCX-,,,@AAZZVVCCZZCVCZZZO,,,,1oooooXooXoooooooooo#            ",
"         +ClllllllllllllllllllllllllllllllllllZ+--%clllllllllllllklllkA@,,1OVkklllllllClllllllllkkkVA+ckllllllA@,--=&CVkkklllllllllllllllkllA@=1#AlllllllllllllllkA%,,1@oZCCCZVVZZCZZZZVVVZ+#           ",
"         #VlllllllllllllllllllllllllllllllllllC+-oVkllccllllllllllllllkZ+,+BlllllllllllclllllllllllcZ+cklllllkl$,-,XVlllllllllllllllllllllllkVo1#ZllllllllccllllllC%,%@ZvlllclcccccclllcccvM*%          ",
"         #VllllllllllllclllllcccllllllllllllllC+@oCllllcclllllcclllllkkZ+-oMkllllllllllcllllllllllllM+vkllllllkVo=@mkllllllllllllllllllcllllkVooVkllllllllccllllllu@-.MjklllllllllllllllllccC@          ",
"         #VllllllllllllclllcccccclllllllllllllZ+,+ClllccclllllcllllllkkZo-oMklllllllllllllllllllllkS;@oVlllllllZo-+MklllllllllllllllcllllllllVooCkllllllllllllllllN+-XVjllllllllllllllllllllZ@          ",
"         #VklllllllllllcllllllllllllllllllllllZo,+CkllcccllllllllllllllVo-oMkllllllllllllllllllllkB4vbo#nllllllVo-+MkllllllllllllllllllllllllVooClllllllllllllllllV+,oVkllllllllllllllllllllZ#          ",
"         @mllllclllllllcllllllllllllllllllllllC+,+VklllclllllllllllllllV+-oMkllllllllllllllllllll5VvlAMn$lllllkVo-+MlllllllllllllllllllllllllVooCllllllllllllllllcVo,oNkllllllllllllllllllllC#          ",
"         #vklllcllllllclllllllllllllllllllllllV+,+CllllclllllllllllllllV+-oMkllllllllllllllllllllVkkllllZklllllZo%+MlllllllllllllllllllllllllNooClllllllllllllllllV#-oMkllllllllllllllllllllV#          ",
"         #vklllclllccccllllllllllllllllllllllky+,oZllllllllllllllllllllZo-oMkllllllllllllllllllllllllllllllllllZ+-oMlllllllllllllllllllllllllNooZllllllllllllllllllZooNkllllllllllllllllllllh%          ",
"         #mllllllllccccllllllllllllllllZMBlkkjy+,oZklllllllllllllllllllZo,@NkllllllllllllllllllllllllllllllllllZ+-oMllllllllllllllllllllllllkMooZlllllllllllllllllkVXoMkllllllllllllllllllllC@          ",
"         #Blklllllllllcllllllllllllllllk;@AVAuu+-oCklllllllllllllllllllZ+,oMkllllllllllllllllllllllllllllllllllZ+-oMllllllllllllllllllllllllV8X+ZllllllllllllllllllVXoMjllllllllllllllllllllC@          ",
"         #Vlklllllllllccllllllllllllllllj:<3ta0o-oyilllllllllllllllllllZ+-oNkllllllllllllllllllllllllllllllllllZ+-oMllllllllllllllllllllllllV8X+CklllllllllllllllllCXoMkklllllllllllllllllllj@          ",
"         @5Allllllllclccllllllllllllllllcbbvooq@,ougllllllcllllllllllllV+-oNkllllllllllllllllllllllllllllllllllZ+-XMlllllllllllllllllllllllkV5X+VklllllllllllllllllCX+rVkllllllllllllllllllcZ#          ",
"         +8AlllllllllllccllllllllllllllllllkuXo$,oAjllllllccllllllllcllCo-oMkllllllllllllllllllllllllllllllllllC+-oNlllllllllllllllllllllllkV5ooVklllllllllllllllllCo+qpSklkkllllllllllllllcC#          ",
"         +5AllllllllllllllllllllllllllllllklcZ@$,ObkllllllcclllllllcclV5o-XMkllllllllllllllllllllllllllllllllllVo-oNklllllllllllllllllllllll3.+oCkkglllllllllllllllVo+00MBvCiuullllllllllllcV#          ",
"         @5rkllllllllllllllllllllllllllllllkkCv+,XmcllllllccllllllllllC8o-XMkllllllllllllllllllllllclllllllllllCo-oNkllllllllllllllllllllllkg.@oCkkllllllllllllllllVX+000800ylkllkjllllllllcC#          ",
"          :uZCCZzNVVBllllllclllclllllllclVVCV9+1,XVkllllcclllllcclllllZ5X-oMklllllllllllllllllllllcccllllllllllCo,orMkllllllllllllllllllcllkC%-+CkkglklllllllllllllVX+000gfjyllllglklllllllcZ#          ",
"          :j000B8000tMmmmmmmMMMMMMMMMMMVV08800o11owlllllcllllllcclccclZ5X,oNkllllllllllllllllllllllllllllllllllZo,X9AlllllllllllllllllllllljA$;+ZjlkjjllllllllllllkMXo0tjllklkllllklllllllllZ#          ",
"          <4000980000wwwqwwqq0qqq00w0000q09899o11o0VlllccllllllcccccllC4X,oNkllllllllllclllllllllllllllllllllllC+=o9ZlllllllllllllllllllllknA@$@0VlllllllllllllllkV8oo0ZclkkkkkkkkkllllllkkBy#          ",
"           4885998Xoo09999000000990099009ooooo,,,X9ulllcllllllccclccljq#-,oNklllllllllcclllllllllllllllllllllllZ+-owNlacmlllllllllllllllkkk;%X,+00VMMMNNNNNNMMNVVV0qoo09VVVVVVVVVVrnNMNVVVV0t#          ",
"            4$+$+oX@++o+oo++++++ooo+oooo+o----,,,o8BlllljalllllllllclAr+,,oNklllllllllllllllllllllllllllllllllkZ+,X05ZwhsVVVCCCZZCVZZCCCZZwt+,-+0099900wwqqqqqqqqqt81o8ww000wwwwwwh59005wttwt&          ",
"            .@+@@@$@oooXoooo++ooooXoooo+oo@$$$$#-o8MlkkfllllllllllllcMfo,,+NlllllllllllllllllllllllllllllkklllkV+-=+q0q%s000000000000000qq0to-,-o99900000000q00000oo1,o5880008900080000300qq=           ",
"           &ZZVCVVVVCVVCCCCCCCCCVVVVV+o+ACCCVBBM@,;CCtyllllllllllllllvho,,+fllllllllllllllllllllllllllllkkkllkM0+--+ot0@+ww0w00www0www0wq00X,,,-<+++o++%@@@@@+@@@+%-,,-+@oO#%$@$@$$@+@@@@@++            ",
"          >AkkllllllllllllllllllllllctOcklllkkkAZ.%r5ckkkklllklllllllZqo,,oaVNVllllllllllllllkllllllllllVVVVVV00+$$-+o+X+oXoooo+oooooooooXoo++++oo++---,----=-=--oo+oXo+OVMcgVmMMMNNNNMNMV@@&           ",
"         &ZlllllllllllllllllllllllllC0OcllllllllSV@et8rVZZCggVCVVtBMVwto,,+90q8ZZCCCCCVfkAmCZZCCCCCCZCZC000qq08q+-,-,1,o,XX===%=$@+,--$ooSCNCCZZVVZAo+oo+ooo+ooo+CVVZVVVCklkkkkllllllkkkkkCCV%          ",
"         @Cllllllllllllllllllllllllkf:vllllllllllV@+ttww009qr0900t000q0o,,,@qt0009999990q0000000000000999000008X@%$$$$$$++@@$$@%$=%,---@Sklcllllllkk+ZZZZZZZAAZAAllllllllllllllllllllllllllllo          ",
"         $VllllllllclllllllllllllllkDclllllllllllV+=@tqw0000ww00040000+,,--,@0009999000000940w0000990009+##$$$#CVVVVVVVCCVVVVVVNNVo%---%kllcllllllllvlllllcccccccllccllllllllllllllllllllllccZ@         ",
"         @VlllcccccccllcllllllllllkVkllllllclllllV+,=XXoXXooXXXoooXXXX-------XXooXoooo+++oo+oo+o+++++oo+ZNNMcZVkkllllllllllllllllkVO--+MlllllllcllllclllllllcccclllccllllllcllllllllllllcccccVo         ",
"         @VllllccccccllllllllllllllllllllllllllllVo,,,-+oXXooXoooooooooooooooooooooooo,,,,,,---$SVCCCVCVkkkklkkllllllllllllllllllkkNo-+MlllllllccllcclllllllcccclllccllclllcclllllllllllcccccVo         ",
"         #VlllccclcccllllllllllllllllllllllllllllV+=,--+ZZZZZVNVVVZZZZCCZZCCCCCCZZZZZZ++oo1,--+vllllllllllllllllllllllllllllllllllkVo-+NlllllllccllccllllllllllllllccllllllllllllllllllllllllV+         ",
"         $nllllcclccclllllllllllllllllllllllllllllC+,-+MlllccllllllcllllclllllllllcclkNVZCo,-oMllllllccclllllllllllllllllllllllllllVo-+NllllllllllcclllllllllllllllclllllllllllllllllllllllllAo         ",
"         $VlllcclllclllllllllljllllllllllllclllllkC+=.mcllllllllllllllllllllllllllllllllkkV@-XNkllllllcclllllllllllllllllllllllllllVo-%MllllilllllcccllclllllllllllclllllllclllllllllllcllllgwO         ",
"         $CllllccllclllllllllllllllclllllllclllllkCo-XNlllllllllllllllllllllllllllllllllllZo-XVkclallllclllllllllllllllllllllllllllVo-+NllllllllllccclcccllllllllllllllclllclllllllllllcllllVto         ",
"         +CllllcllllllllllllllllllllllllllllllllllM+,XNkllllllllllllllllllllllllllllllllllCo=.5uillllllllllllllllllllllllllllllllllVo,+NllllllllllcccllllllllllllllllllcllllllllllllllllllllV9+         ",
"         +VlllllllllllllllllllcllllllllllllllllllZuo,XMlllllllllllllllllllllllllllllllllllVo%X*cnllllllllllllllclllllllllllllllllllVo,oNlllllllllllclllclllllllllllllllcllllllllllllllflllllV9o         ",
"         +VlllllllllllllllllllcclllllllllllllllllZi+,oMllllllllllllllllllllllllllllllllllkVooomklllllllllllllllclllllllllllllllllllCo-oNlllllllljlccllcclllllllllllllllllllllllcgllllllllkflZro         ",
"         @VklljlllllllllcllccllllllllllllllllllllAi+,oNllllllllllllllllllllllllllllllllllkVo1oNklllllllllllllllccllllllllllllllllllVo-oBllllllllllccclccllllllllllllllllllllllllllljlllllkklV+X         ",
"         $VkkklllklllllccccclllllllllllllllllllllAio,+MlllllllllllllllllllllllllllllllllllVo1oNllllllllllllllllllllllllclllllllllllVo-XrklllllllllcclllcllllllllllllllllllllllllllllllllllllV+o         ",
"          +SrwkllkfllllccccclllllllllllllllllllllSio,+NlllllllllllllllllllllllllllllllllllV+,oVllllllllllllllllllllllllclllllllllllVo,XikllllkiclllllllllllllllllllllllllllllllllllllllllllkC+o         ",
"          .o3vllkkullllllllllllllllllllllllllllrlZu+,oNlllllllllllllllllllllllllllllllllllV+,oVllllllllllllllllllllllllllllllllllllVX,oflllllfmkllllllllllllllllllllllllllllllllllllllllllllZ+X         ",
"          XXZllllpB4kllllllllllllllllllllllllfkllC.1,oMcllllllllllllllllllllllllllllllllllCo,oVkklllllllllllllllllllllllllllllllllkVX,oZkkllV4clllllllllllllllllllgllllllllllllllllllllllllcC@X         ",
"          #nklllllitkkkklllllllllllllllllllllkkkkZ.1,oMkllllllllllllllllllllllllllllllllllCo,oNklkllkklllllllllllllllkllllkkkjkkkkmqX,orgjklflllllllllllllllllllllkkaljllllllllllllllllllkkC4+o         ",
"          #nllllllg3BvlklllllllllllllllllglllkkkkAO1,XVlllllllllllllllllllllllllllllllllllVo,o9VvkknnklllklllklllMNMMNNMMMMNckNNNN00@,owCn54klllllllllllllllllllllllCozkllllllllllllllllkjVw5oo         ",
"          #mkklllkgj+nvkkllllllllllllllllgkkkkkkk8.1,XVklllcllllllllllllllllllllllllllllllVo,o90VVM9wBMNMMMMMmnMM00w000qq0wq00qwwwqw@,owwq4lkkllllllllllllllllllkkMM60OBNklllkkllkkkkklMMm404$.         ",
"          @;CCyMVVZ8@w9ZCkllllllllllllllkVtSuCZZg8X1,XVklllllllccllllllllllllllllllllllllkzo,o90000000000900099ytq0qqq0qq0qqqqqqqqq%,,owqqVVCZZZZCZZZCCZZCCCZCCCZC05Bq805CBBB55VVMVtBVB599588,          ",
"           ;00q0000w+000qVVVVVVVVVVVCVVVCV00000005X1,XrlllllllllllllllllllllllllllllllllllMX,oo8000000000998889*80++oo+++++oo+++ooo1,,o@tqww000000000000000000000800000098889qqq00qtw0000083,           ",
"           <qq000000ow0000000000000000000800000ww+-,,oxrcllllllclllllllllllllllclllllllcllBo,1%.++++##@@@$%%%##@++++@,,--,-=,=,ooo+@++@@**%;9980000000000000000000900000088*;o%%**%%%%%%%%0$%           ",
"            oXoXXXoooXX9999999999999988985XoXXooX---,+NcuullllcclllllllllllllllcllllllccllCo,,.mN+o#MMmNVNVVNMNNNNVVZ+@=+,,o++oNNNNVVMMVNNNC@+@o@oo+oo++@Xooo@++Xo+++oooXoomMMMNNNNVVNNVVV+-            ",
"            Xo$2eoooooo+++++@ooooXooooo+oooooXX+-%,--+VklkickllccllllllllllllllcclccllllllCo,-,SSA&VklllllllllllllkkkZ#=,=+SS9kjkkklkklllllkVNVX+$OZZZAAA+%,--$D9VVVVZZV+@lkllkllkkllkkllkS@$           ",
"           +CVVVBVVVZZZVVVVCZo=+ooCVVVVCCZZZZZZCCC%=-oVkllklllllllllllllllllllllllccllllllCo1oCkllZBklllllllllllllllllZo,+AkkflllllllllllllllllZo+SklllccZ+=1oVcllllllkkDfgklllllllllllklllmCO          ",
"          #VlllllllccccccllllV+1XNllllcccclllllllkM+-oVkllllkflllllllllllllllllllllcllllllVo,+ClcllllllllllllllcllllllVX-oClllllllllllllllllllkV+Sklccccckm+2oBgllllllllllkillllllllllkkllkkM#          ",
"          %VkkkllllcclccllllkVX1XVllllcllllllllllkV+-oVllllllkallllllllllllllllllllcllllllVo,+ClcccllllclllcccccllllllV+*oZlllllllllllllllllllkV+rllccccllV+$+BglllllllllllllllllllllkfluiukC@          ",
"          *ujkfllllllllllllllNX1oVlllllllllllllllkV+-oNlllllllkkfllllllllllclllllllclllllkCo,oCllllllllllllccccclllllcVo-oZllllllllllllllllllllV+$lllcccllVo;+BklllllllllllllllclllllllkclikA@          ",
"          *rurjllllllllllllllNo,oVlllllllllllllllkCo-XNklllllllllaillllllllllllllllllllllgto,oCkllllllllllllclcclllllcCo-oCklllllllllllllllllllkc3llllclllVo-+Mklllllllllllllllllllllllllllji#          ",
"          *nllkllllllllllllllNo,oVlllllllllllllllkVo-owmclllllllllkflllllllllllllalllllllZto,oClllllllllllllllcclllllcVo-oVlllllllllllllclllllllc7lllllllkVo-owllllllllllllllllllllllllllllfa$          ",
"          *nkkkllllllllllllllVo,oVlllllllllllllllkVo@o0McccclllllllllllllllllllllkgklkkgkZt+,oVlllllllllllllllllllllllVo-oVlllllllllllllllllllllcVcccllllkN+=o0ijllllllllllllllllllllllllllka@          ",
"          =SkkklllllllllllllkVo1oglllllllllllllllMuo,X9qvllccllllllllllllllllllllkjlkkkjjZt+,oZlllllllllllllllllllllllVo-oNlllllllllllllllllllllllccllllkBqo=owvklllllllllllllllllllllllllkZi@          ",
"          =wvjjkkVCkllllllkkctX2+fNllllllkkkkkkklCtX,X88BVVmllllllllkkkklkkkkkkllkkkMVkakCtX-otnllkllllllklllkklkkkllAio-X0BllllllllllllllllkkkllkllllkkmM0o%oqvcvnklkkllkkllklllkklkkkkkkjAw@          ",
"          %qNVVV495MmmMcllkB0w+2+0wBNNNNVVNVVVVVV9qX,X@0000wBVVVNNNNVVVVVVNVNVVVVVCZ53ZiN8qX-o09VVVVVVMNVVVVVVVVVVNNV9q+-X99BVVVVVVVVVVVVVVVVVNNNNMNNNnyg;8X$o9nZ<4MNVVVVVVVVVVVVVVVVVVVC*Btq#          ",
"          &q990q8580900VVVVr09@=@00000000000000w998X# +80000990000w000000000000ww0ww000w090.=o0099900000990000009999990+=X90000000000000000000009wwww0ww455.+o99990000000000090000000000080wt#          ",
"           30000w:oqww0q00qq0;% #@w00000000000ww00%O  o899000000000000000000000w00www00w89+O +$09990000009000000000090;# +$99900000000000000000000ww00ww90@X o+89990000000000900000000ww0000%           ",
"           :9900008oo59qq0qqq@   =ww00ww0000000w0w+    <88900990000099000000000000000000+5+   *8999909000000000000000q+   *99990090000000900000000w0009000O   %89990000000000900000w000w090o            ",
"            =%%%===$@$$%%%$%=     =*=%%%%%%%****;;      %%%%$$$$$##%%%%%%%%%%%%%%%%%*%%***     %%%%%%%%%%%%%%%%%%%#;;,     %$#$$#$%%$$%%%%%%%%%%%%%%%%%*;,     %%%%%%%%%%=%%%%%%%%%%%%%%%%#             ",
"                                                                                                                                                                                                        ",
"                                                                                                                                                                                                        ",
"                                                                                                                                                                                                        ",
"                                                                                                                                                                                                        ",
"                                                                                                                                                                                                        ",
"                                                                                                                                                                                                        ",
"                                                                                                                                                                                                        ",
"                                                                                                                                                                                                        ",
"                                                                                                                                                                                                        ",
"                                                                                                                                                                                                        "
};
